;FLAVOR:Marlin
;TIME:13955
;Filament used: 9.98663m
;Layer height: 0.2
;MINX:123.871
;MINY:109.28
;MINZ:0.3
;MAXX:175.22
;MAXY:190.72
;MAXZ:30.1
;Generated with Cura_SteamEngine 5.2.1
M140 S60
M105
M190 S60
M104 S230
M105
M109 S230
M82 ;absolute extrusion mode
G92 E0 ; Reset Extruder
G28 ; Home all axes
G1 Z2.0 F3000 ; Move Z Axis up little to prevent scratching of Heat Bed
G1 X0.1 Y20 Z0.3 F5000.0 ; Move to start position
G1 X0.1 Y270.0 Z0.3 F1500.0 E15 ; Draw the first line
G1 X0.4 Y270.0 Z0.3 F5000.0 ; Move to side a little
G1 X0.4 Y20 Z0.3 F1500.0 E30 ; Draw the second line
G92 E0 ; Reset Extruder
G1 Z2.0 F3000 ; Move Z Axis up little to prevent scratching of Heat Bed
G1 X5 Y20 Z0.3 F5000.0 ; Move over to

G92 E0
G92 E0
G1 F4200 E-6
;LAYER_COUNT:150
;LAYER:0
M107
G1 F600 Z0.5
G0 F3600 X125.439 Y110.571 Z0.5
;TYPE:SKIRT
G1 F600 Z0.3
G1 F4200 E0
G1 F1350 X125.775 Y110.192 E0.03058
G1 X126.167 Y109.869 E0.06124
G1 X126.605 Y109.613 E0.09186
G1 X127.077 Y109.428 E0.12247
G1 X127.572 Y109.32 E0.15305
G1 X128.335 Y109.28 E0.19918
G1 X171.339 Y109.28 E2.7952
G1 X172.037 Y109.29 E2.83734
G1 X172.542 Y109.338 E2.86797
G1 X173.033 Y109.463 E2.89855
G1 X173.499 Y109.665 E2.92921
G1 X173.927 Y109.937 E2.95983
G1 X174.307 Y110.273 E2.99045
G1 X174.629 Y110.664 E3.02103
G1 X174.886 Y111.101 E3.05163
G1 X175.072 Y111.573 E3.08226
G1 X175.181 Y112.069 E3.11291
G1 X175.22 Y112.54 E3.14144
G1 X175.207 Y185.545 E7.54855
G1 X175.197 Y186.242 E7.59063
G1 X175.106 Y187.014 E7.63755
G1 X174.912 Y187.646 E7.67746
G1 X174.609 Y188.279 E7.71983
G1 X174.347 Y188.713 E7.75043
G1 X173.857 Y189.286 E7.79594
G1 X173.166 Y189.891 E7.85138
G1 X172.33 Y190.348 E7.9089
G1 X171.437 Y190.619 E7.96524
G1 X170.719 Y190.694 E8.00882
G1 X169.548 Y190.718 E8.07952
G1 X153.51 Y190.72 E9.04769
G1 X152.59 Y190.706 E9.10323
G1 X149.847 Y190.317 E9.27048
G1 X147.133 Y190.008 E9.43537
G1 X144.421 Y189.777 E9.59968
G1 X142.766 Y189.666 E9.69981
G1 X142.264 Y189.592 E9.73044
G1 X141.612 Y189.368 E9.77206
G1 X140.905 Y189.036 E9.81921
G1 X138.416 Y187.912 E9.98408
G1 X135.851 Y186.841 E10.15187
G1 X133.341 Y185.875 E10.31423
G1 X131.224 Y185.142 E10.44947
G1 X129.983 Y184.702 E10.52896
G1 X129.443 Y184.461 E10.56465
G1 X128.712 Y183.971 E10.61778
G1 X127.146 Y182.888 E10.73272
G1 X126.59 Y182.491 E10.77396
G1 X126.202 Y182.164 E10.80459
G1 X125.869 Y181.781 E10.83523
G1 X125.602 Y181.35 E10.86583
G1 X125.358 Y180.731 E10.906
G1 X125.125 Y179.89 E10.95868
G1 X124.891 Y178.987 E11.01499
G1 X124.544 Y177.566 E11.1033
G1 X124.312 Y176.554 E11.16597
G1 X124.159 Y175.846 E11.2097
G1 X124.089 Y175.303 E11.24275
G1 X124.04 Y174.156 E11.31205
G1 X124.021 Y173.487 E11.35246
G1 X123.949 Y172.177 E11.43166
G1 X123.923 Y171.456 E11.47521
G1 X123.932 Y168.758 E11.63808
G1 X123.871 Y166.138 E11.79628
G1 X123.889 Y165.11 E11.85835
G1 X123.911 Y164.462 E11.89749
G1 X123.926 Y161.709 E12.06369
G1 X123.903 Y160.698 E12.12473
G1 X123.908 Y160.601 E12.1306
G1 X123.88 Y159.15 E12.2182
G1 X123.946 Y158.158 E12.27822
G1 X124.035 Y157.044 E12.34568
G1 X124.177 Y154.295 E12.51186
G1 X124.241 Y151.567 E12.67658
G1 X124.252 Y149.741 E12.78681
G1 X124.291 Y148.658 E12.85223
G1 X124.32 Y147.345 E12.93152
G1 X124.353 Y146.438 E12.98631
G1 X124.433 Y145.174 E13.06276
G1 X124.433 Y144.992 E13.07375
G1 X124.549 Y143.35 E13.17312
G1 X124.655 Y140.417 E13.35029
G1 X124.674 Y137.66 E13.51673
G1 X124.616 Y134.953 E13.68018
G1 X124.48 Y132.205 E13.84627
G1 X124.268 Y129.487 E14.01085
G1 X124.152 Y128.391 E14.07738
G1 X124.088 Y127.662 E14.12156
G1 X124.095 Y127.032 E14.15959
G1 X124.211 Y125.964 E14.22444
G1 X124.472 Y123.186 E14.39288
G1 X124.651 Y120.471 E14.55713
G1 X124.755 Y117.721 E14.72326
G1 X124.781 Y115.402 E14.86326
G1 X124.78 Y113.104 E15.00198
G1 X124.79 Y112.46 E15.04087
G1 X124.838 Y111.955 E15.07149
G1 X124.965 Y111.464 E15.1021
G1 X125.167 Y110.999 E15.13271
G1 X125.439 Y110.571 E15.16332
G1 F4200 E9.16332
G1 F600 Z0.5
G0 F3600 X133.676 Y120.614 Z0.5
G1 F600 Z0.3
G1 F4200 E15.16332
G1 F1350 X134.338 Y120.614 E15.20328
G1 X134.406 Y120.67 E15.2086
G1 X133.618 Y120.681 E15.25618
G1 X133.676 Y120.614 E15.26153
G0 F3600 X133.47 Y120.174
G1 F1350 X134.526 Y120.174 E15.32527
G1 X134.792 Y120.426 E15.34739
G1 X135.129 Y120.637 E15.3714
G1 X135.611 Y120.801 E15.40213
G1 X137.646 Y121.212 E15.52746
G1 X139.379 Y122.212 E15.64824
G1 X139.81 Y122.397 E15.67656
G1 X141.392 Y122.862 E15.7761
G1 X141.782 Y122.935 E15.80005
G1 X142.18 Y122.929 E15.82408
G1 X142.568 Y122.843 E15.84807
G1 X142.94 Y122.676 E15.87268
G1 X145.002 Y121.485 E16.01643
G1 X146.48 Y121.042 E16.10958
G1 X147.558 Y121.001 E16.1747
G1 X148.453 Y121.558 E16.23834
G1 X148.925 Y123.206 E16.34182
G1 X148.892 Y124.419 E16.41508
G1 X147.781 Y127.766 E16.62796
G1 X146.388 Y129.41 E16.75804
G1 X146.125 Y129.81 E16.78694
G1 X145.944 Y130.174 E16.81148
G1 X145.756 Y130.311 E16.82553
G1 X145.665 Y130.311 E16.83102
G1 X145.469 Y130.174 E16.84545
G1 X145.453 Y130.123 E16.84868
G1 X145.552 Y129.818 E16.86804
G1 X147.283 Y127.793 E17.02886
G1 X147.51 Y127.466 E17.05289
G1 X147.669 Y127.092 E17.07742
G1 X148.397 Y124.743 E17.22588
G1 X148.489 Y124.291 E17.25372
G1 X148.474 Y123.391 E17.30806
G1 X148.427 Y122.996 E17.33207
G1 X148.303 Y122.618 E17.35609
G1 X148.106 Y122.273 E17.38007
G1 X147.844 Y121.974 E17.40407
G1 X147.527 Y121.734 E17.42807
G1 X147.169 Y121.562 E17.45205
G1 X146.784 Y121.464 E17.47603
G1 X146.387 Y121.446 E17.50002
G1 X145.912 Y121.52 E17.52904
G1 X144.279 Y122.205 E17.63594
G1 X143.93 Y122.395 E17.65993
G1 X143.66 Y122.616 E17.68099
G1 X142.326 Y123.923 E17.79373
G1 X140.778 Y125.145 E17.91279
G1 X140.632 Y124.301 E17.9645
G1 X140.525 Y123.918 E17.9885
G1 X140.345 Y123.564 E18.01248
G1 X140.097 Y123.254 E18.03644
G1 X139.662 Y122.918 E18.06962
G1 X136.914 Y121.35 E18.26062
G1 X136.551 Y121.189 E18.28459
G1 X136.093 Y121.087 E18.31292
G1 X132.374 Y121.138 E18.53744
G1 X131.979 Y121.183 E18.56144
G1 X131.601 Y121.307 E18.58546
G1 X131.256 Y121.503 E18.60941
G1 X130.956 Y121.764 E18.63341
G1 X130.715 Y122.08 E18.6574
G1 X130.541 Y122.438 E18.68143
G1 X130.443 Y122.823 E18.70542
G1 X130.43 Y123.31 E18.73483
G1 X130.57 Y124.743 E18.82174
G1 X129.906 Y126.921 E18.9592
G1 X129.829 Y127.311 E18.9832
G1 X129.836 Y127.749 E19.00964
G1 X129.995 Y128.978 E19.08445
G1 X130.353 Y130.999 E19.20835
G1 X130.295 Y131.991 E19.26834
G1 X130.332 Y132.502 E19.29927
G1 X130.776 Y134.677 E19.43327
G1 X130.645 Y135.771 E19.49978
G1 X130.646 Y136.25 E19.5287
G1 X130.898 Y138.28 E19.65219
G1 X130.408 Y140.204 E19.77204
G1 X130.349 Y140.598 E19.79609
G1 X130.37 Y140.995 E19.82009
G1 X130.496 Y141.466 E19.84952
G1 X130.446 Y143.61 E19.97898
G1 X130.066 Y147.061 E20.18857
G1 X130.08 Y147.601 E20.22118
G1 X130.207 Y148.37 E20.26823
G1 X129.985 Y149.171 E20.31841
G1 X129.918 Y149.563 E20.34242
G1 X129.961 Y150.134 E20.37698
G1 X130.262 Y151.474 E20.45989
G1 X130.287 Y154.336 E20.63267
G1 X130.48 Y155.608 E20.71033
G1 X129.701 Y159.01 E20.92102
G1 X129.651 Y159.485 E20.94985
G1 X129.708 Y162.95 E21.15905
G1 X129.775 Y163.427 E21.18813
G1 X129.989 Y164.229 E21.23824
G1 X129.615 Y165.949 E21.34449
G1 X129.57 Y166.344 E21.36849
G1 X129.632 Y166.862 E21.39999
G1 X130.095 Y168.661 E21.51213
G1 X129.646 Y171.095 E21.66154
G1 X129.613 Y171.491 E21.68553
G1 X129.67 Y171.924 E21.71189
G1 X130.029 Y173.393 E21.80318
G1 X129.742 Y174.831 E21.8917
G1 X129.704 Y175.227 E21.91572
G1 X129.739 Y175.591 E21.93779
G1 X130.122 Y177.593 E22.06084
G1 X130.236 Y177.974 E22.08485
G1 X130.423 Y178.325 E22.10885
G1 X130.677 Y178.631 E22.13286
G1 X130.986 Y178.88 E22.15682
G1 X131.339 Y179.062 E22.18079
G1 X131.722 Y179.171 E22.20483
G1 X132.118 Y179.2 E22.2288
G1 X132.513 Y179.15 E22.25284
G1 X134.561 Y178.676 E22.37974
G1 X136.441 Y178.718 E22.49325
G1 X137.831 Y179.316 E22.5846
G1 X141.313 Y180.382 E22.80443
G1 X142.428 Y181.295 E22.89142
G1 X143.413 Y183.558 E23.04042
G1 X143.783 Y184.35 E23.09319
G1 X143.754 Y184.44 E23.09889
G1 X143.66 Y184.483 E23.10513
G1 X143.211 Y184.132 E23.13954
G1 X142.154 Y181.738 E23.29752
G1 X141.958 Y181.392 E23.32152
G1 X141.697 Y181.092 E23.34553
G1 X141.381 Y180.851 E23.36952
G1 X141.011 Y180.673 E23.3943
G1 X136.675 Y179.119 E23.67236
G1 X136.289 Y179.023 E23.69637
G1 X135.892 Y179.006 E23.72036
G1 X135.552 Y179.056 E23.7411
G1 X133.62 Y179.512 E23.86094
G1 X131.609 Y179.652 E23.98263
G1 X130.179 Y178.663 E24.08759
G1 X129.771 Y177.091 E24.18563
G1 X129.314 Y175.109 E24.30842
G1 X129.534 Y173.804 E24.38831
G1 X129.56 Y173.407 E24.41233
G1 X129.512 Y173.036 E24.43491
G1 X129.156 Y171.472 E24.53174
G1 X129.525 Y169.52 E24.65166
G1 X129.567 Y169.034 E24.68111
G1 X129.116 Y166.336 E24.84624
G1 X129.398 Y165.493 E24.8999
G1 X129.485 Y165.105 E24.9239
G1 X129.48 Y164.585 E24.9553
G1 X129.226 Y162.807 E25.06372
G1 X129.426 Y161.006 E25.17311
G1 X129.431 Y160.53 E25.20185
G1 X129.127 Y159.239 E25.28191
G1 X129.957 Y155.811 E25.49483
G1 X130.013 Y155.349 E25.52292
G1 X130.019 Y152.687 E25.68362
G1 X129.978 Y152.282 E25.70819
G1 X129.481 Y149.879 E25.85633
G1 X129.706 Y148.802 E25.92275
G1 X129.755 Y148.338 E25.95091
G1 X129.566 Y146.768 E26.04637
G1 X129.819 Y145.73 E26.11087
G1 X129.874 Y145.336 E26.13488
G1 X129.848 Y144.935 E26.15914
G1 X129.741 Y144.295 E26.19831
G1 X129.96 Y143.385 E26.25481
G1 X130.011 Y142.8 E26.29026
G1 X129.893 Y140.892 E26.40566
G1 X130.392 Y138.598 E26.54738
G1 X130.437 Y138.203 E26.57138
G1 X130.398 Y137.784 E26.59679
G1 X130.215 Y136.882 E26.65235
G1 X130.425 Y135.395 E26.743
G1 X130.44 Y134.998 E26.76699
G1 X130.39 Y134.66 E26.78761
G1 X129.839 Y132.347 E26.93115
G1 X129.945 Y131.891 E26.95941
G1 X129.933 Y131.35 E26.99208
G1 X129.318 Y127.552 E27.22434
G1 X129.995 Y125.522 E27.35352
G1 X130.083 Y125.134 E27.37754
G1 X130.092 Y124.678 E27.40507
G1 X129.882 Y123.608 E27.47089
G1 X130.193 Y122.087 E27.56461
G1 X131.467 Y121.113 E27.66142
G1 X132.382 Y120.889 E27.71829
G1 X132.757 Y120.757 E27.74229
G1 X133.097 Y120.552 E27.76625
G1 X133.47 Y120.174 E27.79831
G0 F3600 X133.141 Y119.894
G1 F1350 X133.236 Y119.734 E27.80955
G1 X134.738 Y119.734 E27.90022
G1 X134.951 Y119.985 E27.92009
G1 X135.233 Y120.194 E27.94128
G1 X135.698 Y120.369 E27.97127
G1 X137.8 Y120.794 E28.10073
G1 X139.598 Y121.831 E28.22603
G1 X139.934 Y121.974 E28.24807
G1 X141.516 Y122.439 E28.34761
G1 X141.861 Y122.499 E28.36875
G1 X142.211 Y122.48 E28.38991
G1 X142.596 Y122.367 E28.41413
G1 X144.829 Y121.077 E28.56981
G1 X146.406 Y120.604 E28.6692
G1 X147.674 Y120.557 E28.7458
G1 X148.83 Y121.275 E28.82795
G1 X149.367 Y123.151 E28.94575
G1 X149.33 Y124.494 E29.02685
G1 X148.17 Y127.987 E29.24904
G1 X146.724 Y129.695 E29.38413
G1 X146.52 Y130.005 E29.40653
G1 X146.291 Y130.466 E29.43761
G1 X145.899 Y130.751 E29.46686
G1 X145.526 Y130.751 E29.48938
G1 X145.097 Y130.451 E29.52098
G1 X144.991 Y130.123 E29.54179
G1 X145.162 Y129.596 E29.57524
G1 X146.948 Y127.507 E29.74115
G1 X147.193 Y127.144 E29.76759
G1 X147.977 Y124.613 E29.92754
G1 X148.046 Y124.132 E29.95687
G1 X148.034 Y123.398 E30.00119
G1 X147.988 Y123.05 E30.02238
G1 X147.865 Y122.722 E30.04353
G1 X147.671 Y122.43 E30.06469
G1 X147.416 Y122.19 E30.08583
G1 X147.114 Y122.013 E30.10696
G1 X146.779 Y121.91 E30.12812
G1 X146.43 Y121.884 E30.14924
G1 X146.031 Y121.947 E30.17363
G1 X144.449 Y122.611 E30.2772
G1 X144.086 Y122.815 E30.30234
G1 X142.621 Y124.25 E30.42613
G1 X140.902 Y125.607 E30.55834
G1 X140.579 Y125.607 E30.57784
G1 X140.388 Y125.468 E30.5921
G1 X140.199 Y124.376 E30.659
G1 X140.1 Y124.04 E30.68015
G1 X139.928 Y123.734 E30.70134
G1 X139.691 Y123.476 E30.72249
G1 X139.444 Y123.3 E30.74079
G1 X136.696 Y121.732 E30.93179
G1 X136.374 Y121.595 E30.95291
G1 X135.912 Y121.53 E30.98108
G1 X132.38 Y121.578 E31.19431
G1 X132.032 Y121.623 E31.2155
G1 X131.704 Y121.745 E31.23662
G1 X131.412 Y121.938 E31.25775
G1 X131.17 Y122.192 E31.27893
G1 X130.993 Y122.494 E31.30006
G1 X130.888 Y122.829 E31.32125
G1 X130.868 Y123.268 E31.34778
G1 X131.016 Y124.787 E31.43992
G1 X130.327 Y127.049 E31.58266
G1 X130.246 Y127.491 E31.60979
G1 X130.417 Y128.828 E31.69115
G1 X130.796 Y130.972 E31.82259
G1 X130.735 Y132.017 E31.88578
G1 X130.763 Y132.414 E31.9098
G1 X131.221 Y134.66 E32.04818
G1 X131.082 Y135.823 E32.11889
G1 X131.083 Y136.196 E32.1414
G1 X131.345 Y138.309 E32.26994
G1 X130.835 Y140.313 E32.39477
G1 X130.787 Y140.66 E32.41591
G1 X130.863 Y141.17 E32.44704
G1 X130.937 Y141.397 E32.46145
G1 X130.885 Y143.645 E32.5972
G1 X130.503 Y147.109 E32.80758
G1 X130.515 Y147.529 E32.83294
G1 X130.658 Y148.392 E32.88575
G1 X130.409 Y149.289 E32.94194
G1 X130.354 Y149.635 E32.96309
G1 X130.39 Y150.037 E32.98746
G1 X130.701 Y151.424 E33.07327
G1 X130.727 Y154.302 E33.24701
G1 X130.927 Y155.626 E33.32784
G1 X130.13 Y159.108 E33.54348
G1 X130.091 Y159.477 E33.56588
G1 X130.148 Y162.942 E33.77508
G1 X130.2 Y163.313 E33.79769
G1 X130.441 Y164.218 E33.85423
G1 X130.045 Y166.042 E33.9669
G1 X130.01 Y166.391 E33.98808
G1 X130.059 Y166.752 E34.01007
G1 X130.546 Y168.644 E34.12801
G1 X130.079 Y171.175 E34.28338
G1 X130.048 Y171.621 E34.31036
G1 X130.48 Y173.385 E34.42
G1 X130.174 Y174.917 E34.51431
G1 X130.139 Y175.34 E34.53993
G1 X130.554 Y177.51 E34.6733
G1 X130.659 Y177.845 E34.69449
G1 X130.836 Y178.147 E34.71563
G1 X131.078 Y178.401 E34.7368
G1 X131.37 Y178.594 E34.75793
G1 X131.699 Y178.716 E34.77912
G1 X132.046 Y178.761 E34.80024
G1 X132.414 Y178.721 E34.82259
G1 X134.515 Y178.235 E34.95277
G1 X136.535 Y178.279 E35.07474
G1 X137.989 Y178.906 E35.17032
G1 X141.528 Y179.989 E35.39374
G1 X142.787 Y181.02 E35.49198
G1 X143.795 Y183.335 E35.6444
G1 X144.255 Y184.319 E35.70997
G1 X144.129 Y184.712 E35.73488
G1 X143.838 Y184.923 E35.75658
G1 X143.508 Y184.923 E35.7765
G1 X142.854 Y184.413 E35.82657
G1 X141.752 Y181.915 E35.99139
G1 X141.575 Y181.613 E36.01252
G1 X141.334 Y181.358 E36.0337
G1 X140.996 Y181.135 E36.05815
G1 X136.527 Y179.533 E36.34474
G1 X136.185 Y179.453 E36.36594
G1 X135.784 Y179.453 E36.39015
G1 X133.684 Y179.949 E36.52041
G1 X131.486 Y180.102 E36.65341
G1 X129.795 Y178.933 E36.77751
G1 X129.337 Y177.168 E36.88759
G1 X128.866 Y175.122 E37.01433
G1 X129.1 Y173.731 E37.09948
G1 X129.122 Y173.305 E37.12523
G1 X128.707 Y171.479 E37.23827
G1 X129.092 Y169.439 E37.3636
G1 X129.122 Y169.04 E37.38775
G1 X128.663 Y166.299 E37.55552
G1 X128.98 Y165.353 E37.61575
G1 X129.053 Y165.01 E37.63692
G1 X129.045 Y164.647 E37.65884
G1 X128.784 Y162.813 E37.77067
G1 X128.989 Y160.958 E37.88333
G1 X128.957 Y160.435 E37.91496
G1 X128.675 Y159.237 E37.98926
G1 X129.53 Y155.707 E38.20851
G1 X129.573 Y155.348 E38.23034
G1 X129.579 Y152.686 E38.39104
G1 X129.547 Y152.371 E38.41015
G1 X129.032 Y149.882 E38.56359
G1 X129.276 Y148.713 E38.63568
G1 X129.297 Y148.214 E38.66583
G1 X129.119 Y146.741 E38.7554
G1 X129.391 Y145.626 E38.82468
G1 X129.445 Y145.196 E38.85084
G1 X129.292 Y144.279 E38.90696
G1 X129.532 Y143.282 E38.96887
G1 X129.572 Y142.827 E38.99644
G1 X129.45 Y140.857 E39.11559
G1 X129.962 Y138.504 E39.26096
G1 X130.006 Y138.068 E39.28741
G1 X129.769 Y136.896 E39.3596
G1 X129.989 Y135.334 E39.45482
G1 X130 Y134.92 E39.47982
G1 X129.382 Y132.327 E39.64074
G1 X129.512 Y131.8 E39.67351
G1 X129.498 Y131.421 E39.6964
G1 X128.866 Y127.517 E39.93514
G1 X129.578 Y125.382 E40.071
G1 X129.65 Y125.039 E40.09216
G1 X129.628 Y124.599 E40.11876
G1 X129.433 Y123.607 E40.17979
G1 X129.795 Y121.839 E40.28873
G1 X131.274 Y120.707 E40.40116
G1 X132.277 Y120.462 E40.46349
G1 X132.606 Y120.341 E40.48465
G1 X132.899 Y120.148 E40.50583
G1 X133.141 Y119.894 E40.52701
G0 F3600 X132.866 Y119.514
