;FLAVOR:Marlin
;TIME:13897
;Filament used: 9.95013m
;Layer height: 0.2
;MINX:124.78
;MINY:109.28
;MINZ:0.3
;MAXX:175.909
;MAXY:191.145
;MAXZ:30.1
;Generated with Cura_SteamEngine 5.2.1
M140 S60
M105
M190 S60
M104 S230
M105
M109 S230
M82 ;absolute extrusion mode
G92 E0 ; Reset Extruder
G28 ; Home all axes
G1 Z2.0 F3000 ; Move Z Axis up little to prevent scratching of Heat Bed
G1 X0.1 Y20 Z0.3 F5000.0 ; Move to start position
G1 X0.1 Y270.0 Z0.3 F1500.0 E15 ; Draw the first line
G1 X0.4 Y270.0 Z0.3 F5000.0 ; Move to side a little
G1 X0.4 Y20 Z0.3 F1500.0 E30 ; Draw the second line
G92 E0 ; Reset Extruder
G1 Z2.0 F3000 ; Move Z Axis up little to prevent scratching of Heat Bed
G1 X5 Y20 Z0.3 F5000.0 ; Move over to

G92 E0
G92 E0
G1 F4200 E-6
;LAYER_COUNT:150
;LAYER:0
M107
G1 F600 Z0.5
G0 F3600 X125.437 Y110.574 Z0.5
;TYPE:SKIRT
G1 F600 Z0.3
G1 F4200 E0
G1 F1350 X125.773 Y110.194 E0.03062
G1 X126.165 Y109.871 E0.06128
G1 X126.602 Y109.614 E0.09189
G1 X127.074 Y109.429 E0.12249
G1 X127.569 Y109.32 E0.15309
G1 X128.025 Y109.282 E0.18071
G1 X171.335 Y109.28 E2.79521
G1 X172.033 Y109.289 E2.83735
G1 X172.538 Y109.336 E2.86797
G1 X173.029 Y109.461 E2.89856
G1 X173.495 Y109.662 E2.92919
G1 X173.923 Y109.933 E2.95977
G1 X174.304 Y110.268 E2.9904
G1 X174.627 Y110.659 E3.02101
G1 X174.884 Y111.096 E3.05162
G1 X175.07 Y111.568 E3.08224
G1 X175.18 Y112.063 E3.11286
G1 X175.219 Y112.523 E3.14072
G1 X175.22 Y116.839 E3.40127
G1 X175.208 Y117.643 E3.44981
G1 X174.939 Y120.786 E3.64024
G1 X174.784 Y123.527 E3.80597
G1 X174.707 Y126.276 E3.97198
G1 X174.707 Y128.993 E4.136
G1 X174.786 Y131.747 E4.30232
G1 X174.942 Y134.493 E4.46835
G1 X175.17 Y137.179 E4.63108
G1 X175.646 Y141.137 E4.87174
G1 X175.801 Y142.24 E4.93898
G1 X175.799 Y143.545 E5.01776
G1 X175.791 Y143.979 E5.04396
G1 X175.823 Y146.759 E5.21179
G1 X175.862 Y147.723 E5.27003
G1 X175.909 Y149.522 E5.37867
G1 X175.866 Y151.003 E5.46811
G1 X175.801 Y152.423 E5.55392
G1 X175.712 Y153.908 E5.64373
G1 X175.628 Y156.619 E5.80746
G1 X175.628 Y157.847 E5.88159
G1 X175.599 Y160.674 E6.05226
G1 X175.6 Y162.694 E6.1742
G1 X175.608 Y163.533 E6.22485
G1 X175.586 Y164.794 E6.30099
G1 X175.577 Y167.531 E6.46621
G1 X175.646 Y170.265 E6.63131
G1 X175.83 Y173.571 E6.83119
G1 X175.816 Y174.148 E6.86603
G1 X175.637 Y175.113 E6.92528
G1 X174.982 Y178.366 E7.1256
G1 X174.81 Y179.16 E7.17464
G1 X174.626 Y179.776 E7.21345
G1 X173.31 Y182.141 E7.37683
G1 X172.383 Y183.915 E7.49767
G1 X172.344 Y183.976 E7.50204
G1 X171.733 Y185.159 E7.58241
G1 X171.399 Y185.677 E7.61962
G1 X170.988 Y186.196 E7.65958
G1 X170.082 Y187.307 E7.74613
G1 X169.636 Y187.84 E7.78808
G1 X169.098 Y188.351 E7.83287
G1 X168.488 Y188.808 E7.87888
G1 X167.918 Y189.213 E7.9211
G1 X167.482 Y189.473 E7.95174
G1 X167.017 Y189.659 E7.98197
G1 X165.91 Y190.005 E8.05199
G1 X164.667 Y190.419 E8.13108
G1 X164.588 Y190.439 E8.136
G1 X163.324 Y190.849 E8.21621
G1 X162.736 Y190.99 E8.25272
G1 X161.4 Y191.059 E8.33347
G1 X159.128 Y191.13 E8.47069
G1 X158.269 Y191.145 E8.52256
G1 X155.566 Y190.925 E8.68627
G1 X152.844 Y190.778 E8.85083
G1 X150.103 Y190.707 E9.01635
G1 X147.986 Y190.726 E9.14415
G1 X147.807 Y190.713 E9.15499
G1 X146.845 Y190.72 E9.21306
G1 X129.981 Y190.713 E10.23109
G1 X129.33 Y190.704 E10.2704
G1 X128.727 Y190.648 E10.30695
G1 X127.943 Y190.423 E10.35619
G1 X127.468 Y190.245 E10.38681
G1 X126.775 Y189.841 E10.43524
G1 X126.19 Y189.352 E10.48127
G1 X125.684 Y188.748 E10.52883
G1 X125.252 Y188.051 E10.57833
G1 X125.012 Y187.422 E10.61898
G1 X124.857 Y186.719 E10.66243
G1 X124.793 Y186.129 E10.69826
G1 X124.782 Y185.354 E10.74505
G1 X124.78 Y113.152 E15.10368
G1 X124.79 Y112.463 E15.14527
G1 X124.838 Y111.958 E15.1759
G1 X124.964 Y111.467 E15.2065
G1 X125.165 Y111.002 E15.23708
G1 X125.437 Y110.574 E15.26769
G1 F4200 E9.26769
G1 F600 Z0.5
G0 F3600 X164.919 Y125.1 Z0.5
G1 F600 Z0.3
G1 F4200 E15.26769
G1 F1350 X165.619 Y124.571 E15.32066
G1 X166.232 Y124.593 E15.35769
G1 X167.298 Y125.169 E15.43083
G1 X167.463 Y125.672 E15.46279
G1 X167.085 Y125.356 E15.49253
G1 X166.699 Y125.146 E15.51906
G1 X166.281 Y125.01 E15.54559
G1 X165.845 Y124.952 E15.57214
G1 X165.406 Y124.974 E15.59868
G1 X164.919 Y125.1 E15.62905
G0 F3600 X165.134 Y125.486
G1 F1350 X164.77 Y125.646 E15.65305
G1 X164.446 Y125.875 E15.677
G1 X164.173 Y126.165 E15.70104
G1 X163.906 Y126.645 E15.7342
G1 X163.387 Y127.029 E15.77317
G1 X163.165 Y127.022 E15.78658
G1 X163.076 Y126.958 E15.7932
G1 X163.079 Y126.811 E15.80208
G1 X163.425 Y126.506 E15.82992
G1 X163.714 Y126.111 E15.85946
G1 X164.081 Y125.182 E15.91976
G1 X165.478 Y124.126 E16.02548
G1 X166.351 Y124.157 E16.07821
G1 X167.661 Y124.865 E16.1681
G1 X167.978 Y125.834 E16.22965
G1 X168.225 Y128.465 E16.38918
G1 X167.675 Y131.091 E16.55114
G1 X167.635 Y131.584 E16.581
G1 X167.675 Y132.493 E16.63592
G1 X167.308 Y133.473 E16.6991
G1 X167.207 Y133.857 E16.72307
G1 X167.184 Y134.254 E16.74707
G1 X167.241 Y134.648 E16.7711
G1 X167.375 Y135.022 E16.79509
G1 X167.65 Y135.447 E16.82565
G1 X169.189 Y137.266 E16.96948
G1 X169.907 Y139.379 E17.1042
G1 X170.557 Y142.418 E17.29181
G1 X169.915 Y144.887 E17.44581
G1 X169.851 Y145.399 E17.47696
G1 X169.863 Y147.152 E17.58278
G1 X169.906 Y147.547 E17.60677
G1 X170.009 Y147.883 E17.62798
G1 X170.707 Y149.601 E17.73993
G1 X170.651 Y151.401 E17.84864
G1 X170.173 Y154.22 E18.02125
G1 X170.154 Y154.739 E18.0526
G1 X170.344 Y156.734 E18.17358
G1 X170.422 Y159.163 E18.32028
G1 X170.209 Y162.088 E18.49732
G1 X170.231 Y162.56 E18.52585
G1 X170.399 Y163.56 E18.58706
G1 X169.97 Y167.303 E18.81449
G1 X169.963 Y167.769 E18.84263
G1 X170.292 Y169.259 E18.93474
G1 X170.138 Y171.876 E19.093
G1 X170.159 Y172.357 E19.12206
G1 X170.589 Y173.839 E19.21521
G1 X169.839 Y177.563 E19.44454
G1 X168.509 Y179.053 E19.5651
G1 X168.275 Y179.375 E19.58913
G1 X168.107 Y179.747 E19.61377
G1 X167.123 Y182.708 E19.80213
G1 X165.79 Y184.343 E19.92948
G1 X165.265 Y184.725 E19.96867
G1 X163.795 Y184.985 E20.05879
G1 X163.295 Y185.144 E20.09046
G1 X161.812 Y185.844 E20.18946
G1 X158.951 Y185.933 E20.36225
G1 X158.754 Y185.818 E20.37602
G1 X158.312 Y185.669 E20.40418
G1 X156.297 Y185.464 E20.52645
G1 X156.147 Y185.355 E20.53764
G1 X156.148 Y185.215 E20.54609
G1 X156.388 Y185.041 E20.56399
G1 X158.722 Y185.28 E20.70562
G1 X159.026 Y185.458 E20.72689
G1 X159.402 Y185.585 E20.75085
G1 X159.797 Y185.635 E20.77488
G1 X160.274 Y185.6 E20.80375
G1 X162.667 Y184.809 E20.9559
G1 X164.02 Y184.658 E21.03808
G1 X164.409 Y184.574 E21.06211
G1 X164.861 Y184.362 E21.09225
G1 X165.792 Y183.771 E21.15882
G1 X166.105 Y183.525 E21.18285
G1 X166.362 Y183.222 E21.20683
G1 X166.585 Y182.793 E21.23602
G1 X168.003 Y179.003 E21.4803
G1 X168.988 Y177.98 E21.56603
G1 X169.234 Y177.668 E21.59001
G1 X169.412 Y177.312 E21.61404
G1 X169.511 Y176.958 E21.63623
G1 X170.03 Y174.075 E21.81307
G1 X170.06 Y173.679 E21.83704
G1 X169.965 Y173.114 E21.87163
G1 X169.827 Y172.689 E21.8986
G1 X169.83 Y169.533 E22.08912
G1 X169.492 Y167.479 E22.21478
G1 X169.712 Y166.357 E22.2838
G1 X169.908 Y163.653 E22.44747
G1 X169.891 Y163.218 E22.47375
G1 X169.731 Y162.145 E22.53924
G1 X170.11 Y158.95 E22.73346
G1 X170.108 Y158.467 E22.76262
G1 X169.612 Y154.57 E22.99977
G1 X170.411 Y151.058 E23.21719
G1 X170.459 Y150.663 E23.24121
G1 X170.429 Y150.267 E23.26519
G1 X170.33 Y149.914 E23.28732
G1 X169.406 Y147.487 E23.44409
G1 X169.305 Y145.752 E23.549
G1 X170.084 Y142.582 E23.74606
G1 X170.139 Y142.188 E23.77008
G1 X170.112 Y141.738 E23.79729
G1 X169.016 Y137.696 E24.05011
G1 X168.874 Y137.325 E24.07409
G1 X168.61 Y136.908 E24.10388
G1 X167.176 Y135.58 E24.22187
G1 X166.858 Y135.341 E24.24588
G1 X166.5 Y135.17 E24.26983
G1 X166.037 Y135.054 E24.29864
G1 X161.973 Y135.038 E24.54398
G1 X160.945 Y134.723 E24.60888
G1 X159.409 Y133.556 E24.72533
G1 X158.691 Y131.655 E24.848
G1 X158.514 Y131.299 E24.872
G1 X158.27 Y130.986 E24.89596
G1 X157.9 Y130.669 E24.92538
G1 X155.044 Y129.268 E25.11741
G1 X154.651 Y129.125 E25.14266
G1 X153.519 Y128.843 E25.21308
G1 X151.376 Y127.21 E25.37573
G1 X150.94 Y126.185 E25.44297
G1 X150.89 Y124.164 E25.56501
G1 X151.007 Y123.804 E25.58786
G1 X151.141 Y123.759 E25.59639
G1 X151.222 Y123.818 E25.60244
G1 X151.415 Y124.368 E25.63763
G1 X151.428 Y125.981 E25.735
G1 X151.471 Y126.376 E25.75899
G1 X151.592 Y126.755 E25.78301
G1 X151.787 Y127.102 E25.80703
G1 X152.047 Y127.403 E25.83105
G1 X152.428 Y127.698 E25.86013
G1 X154.587 Y128.64 E26.00233
G1 X156.653 Y129.749 E26.14388
G1 X158.53 Y130.791 E26.27348
G1 X159.271 Y132.107 E26.36465
G1 X159.566 Y132.951 E26.41862
G1 X159.734 Y133.311 E26.44261
G1 X159.97 Y133.63 E26.46656
G1 X160.266 Y133.896 E26.49058
G1 X160.658 Y134.119 E26.51781
G1 X161.661 Y134.547 E26.58364
G1 X162.04 Y134.666 E26.60762
G1 X162.403 Y134.706 E26.62967
G1 X164.825 Y134.749 E26.7759
G1 X165.221 Y134.716 E26.79989
G1 X165.603 Y134.604 E26.82392
G1 X165.954 Y134.419 E26.84787
G1 X166.262 Y134.167 E26.87189
G1 X166.599 Y133.716 E26.90588
G1 X167.098 Y132.8 E26.96885
G1 X167.252 Y132.434 E26.99282
G1 X167.33 Y132.044 E27.01683
G1 X167.328 Y131.647 E27.04079
G1 X167.253 Y131.295 E27.06252
G1 X167.767 Y129.104 E27.19838
G1 X167.825 Y128.655 E27.22571
G1 X167.719 Y127.224 E27.31233
G1 X167.65 Y126.832 E27.33636
G1 X167.504 Y126.462 E27.36037
G1 X167.287 Y126.129 E27.38436
G1 X167.008 Y125.846 E27.40835
G1 X166.678 Y125.624 E27.43236
G1 X166.311 Y125.473 E27.45632
G1 X165.92 Y125.398 E27.48035
G1 X165.523 Y125.402 E27.50432
G1 X165.134 Y125.486 E27.52834
G0 F3600 X165.249 Y125.912
G1 F1350 X164.932 Y126.062 E27.54951
G1 X164.657 Y126.279 E27.57066
G1 X164.439 Y126.553 E27.5918
G1 X164.27 Y126.922 E27.6163
G1 X163.524 Y127.474 E27.67232
G1 X163.016 Y127.458 E27.703
G1 X162.703 Y127.231 E27.72634
G1 X162.592 Y126.889 E27.74805
G1 X162.705 Y126.54 E27.77019
G1 X163.125 Y126.18 E27.80359
G1 X163.385 Y125.747 E27.83408
G1 X163.718 Y124.905 E27.88874
G1 X165.338 Y123.681 E28.01131
G1 X166.469 Y123.721 E28.07962
G1 X168.025 Y124.562 E28.1864
G1 X168.411 Y125.744 E28.26146
G1 X168.669 Y128.491 E28.42802
G1 X168.106 Y131.181 E28.59392
G1 X168.075 Y131.565 E28.61718
G1 X168.119 Y132.563 E28.67749
G1 X167.72 Y133.628 E28.74614
G1 X167.635 Y133.968 E28.7673
G1 X167.629 Y134.318 E28.78843
G1 X167.703 Y134.661 E28.80961
G1 X167.88 Y135.038 E28.83475
G1 X169.58 Y137.047 E28.99362
G1 X170.33 Y139.256 E29.13445
G1 X171.009 Y142.428 E29.33027
G1 X170.341 Y144.997 E29.49051
G1 X170.291 Y145.396 E29.51479
G1 X170.303 Y147.149 E29.62061
G1 X170.353 Y147.563 E29.64579
G1 X171.15 Y149.524 E29.77357
G1 X171.09 Y151.444 E29.88953
G1 X170.607 Y154.293 E30.06397
G1 X170.592 Y154.697 E30.08838
G1 X170.784 Y156.709 E30.21039
G1 X170.862 Y159.172 E30.35915
G1 X170.648 Y162.12 E30.53758
G1 X170.665 Y162.487 E30.55976
G1 X170.843 Y163.548 E30.6247
G1 X170.407 Y167.353 E30.8559
G1 X170.433 Y167.86 E30.88655
G1 X170.735 Y169.229 E30.97118
G1 X170.578 Y171.902 E31.13282
G1 X170.636 Y172.421 E31.16434
G1 X171.042 Y173.819 E31.25222
G1 X170.247 Y177.767 E31.49534
G1 X168.837 Y179.346 E31.62313
G1 X168.586 Y179.703 E31.64947
G1 X167.516 Y182.923 E31.85431
G1 X166.094 Y184.667 E31.99015
G1 X165.441 Y185.141 E32.03886
G1 X163.871 Y185.419 E32.13511
G1 X163.483 Y185.542 E32.15968
G1 X161.917 Y186.281 E32.26421
G1 X158.843 Y186.377 E32.44987
G1 X158.534 Y186.202 E32.47131
G1 X158.091 Y186.089 E32.49891
G1 X156.134 Y185.89 E32.61765
G1 X155.774 Y185.628 E32.64453
G1 X155.663 Y185.286 E32.66624
G1 X155.773 Y184.945 E32.68787
G1 X156.267 Y184.586 E32.72473
G1 X158.873 Y184.853 E32.88287
G1 X159.246 Y185.074 E32.90905
G1 X159.583 Y185.173 E32.93025
G1 X159.932 Y185.194 E32.95136
G1 X160.33 Y185.118 E32.97582
G1 X162.575 Y184.376 E33.11855
G1 X163.971 Y184.22 E33.20335
G1 X164.313 Y184.142 E33.22452
G1 X164.625 Y183.99 E33.24547
G1 X165.556 Y183.399 E33.31204
G1 X165.829 Y183.179 E33.33321
G1 X166.045 Y182.903 E33.35437
G1 X166.173 Y182.639 E33.37208
G1 X167.624 Y178.763 E33.62192
G1 X168.671 Y177.675 E33.71307
G1 X168.884 Y177.397 E33.73421
G1 X169.052 Y177.023 E33.75896
G1 X169.597 Y173.997 E33.94457
G1 X169.619 Y173.647 E33.96574
G1 X169.546 Y173.249 E33.99017
G1 X169.387 Y172.759 E34.02127
G1 X169.39 Y169.568 E34.2139
G1 X169.045 Y167.471 E34.34219
G1 X169.275 Y166.298 E34.41435
G1 X169.469 Y163.621 E34.57638
G1 X169.456 Y163.283 E34.5968
G1 X169.287 Y162.151 E34.66589
G1 X169.673 Y158.898 E34.86364
G1 X169.672 Y158.522 E34.88634
G1 X169.166 Y154.546 E35.12829
G1 X169.982 Y150.96 E35.3503
G1 X170.02 Y150.612 E35.37144
G1 X169.973 Y150.211 E35.39581
G1 X168.97 Y147.577 E35.56596
G1 X168.861 Y145.712 E35.67873
G1 X169.656 Y142.477 E35.87983
G1 X169.701 Y142.129 E35.90101
G1 X169.647 Y141.706 E35.92676
G1 X168.591 Y137.811 E36.17037
G1 X168.462 Y137.485 E36.19154
G1 X168.152 Y137.084 E36.22214
G1 X166.877 Y135.903 E36.32705
G1 X166.594 Y135.696 E36.34822
G1 X166.272 Y135.558 E36.36936
G1 X165.836 Y135.493 E36.39597
G1 X161.905 Y135.478 E36.63328
G1 X160.743 Y135.121 E36.70666
G1 X159.043 Y133.83 E36.83552
G1 X158.28 Y131.81 E36.96587
G1 X158.12 Y131.499 E36.98699
G1 X157.893 Y131.231 E37.00819
G1 X157.517 Y130.971 E37.03579
G1 X154.85 Y129.663 E37.21511
G1 X154.545 Y129.552 E37.2347
G1 X153.324 Y129.248 E37.31066
G1 X151.017 Y127.49 E37.48575
G1 X150.503 Y126.282 E37.565
G1 X150.449 Y124.098 E37.69688
G1 X150.634 Y123.531 E37.73289
G1 X150.926 Y123.319 E37.75467
G1 X151.284 Y123.319 E37.77628
G1 X151.592 Y123.542 E37.79924
G1 X151.854 Y124.292 E37.8472
G1 X151.868 Y125.978 E37.94898
G1 X151.911 Y126.326 E37.97015
G1 X152.031 Y126.655 E37.99129
G1 X152.223 Y126.948 E38.01243
G1 X152.476 Y127.191 E38.03361
G1 X152.792 Y127.376 E38.05571
G1 X154.775 Y128.241 E38.18632
G1 X156.841 Y129.35 E38.32787
G1 X158.852 Y130.467 E38.46673
G1 X159.673 Y131.924 E38.56769
G1 X159.981 Y132.806 E38.62409
G1 X160.133 Y133.121 E38.6452
G1 X160.353 Y133.394 E38.66637
G1 X160.679 Y133.649 E38.69135
G1 X161.834 Y134.142 E38.76716
G1 X162.239 Y134.263 E38.79268
G1 X164.833 Y134.309 E38.9493
G1 X165.181 Y134.275 E38.9704
G1 X165.514 Y134.163 E38.99161
G1 X165.812 Y133.98 E39.01272
G1 X166.12 Y133.674 E39.03893
G1 X166.711 Y132.59 E39.11347
G1 X166.843 Y132.265 E39.13464
G1 X166.898 Y131.919 E39.15579
G1 X166.873 Y131.569 E39.17697
G1 X166.799 Y131.302 E39.1937
G1 X167.338 Y129.004 E39.33619
G1 X167.375 Y128.538 E39.36441
G1 X167.28 Y127.256 E39.44201
G1 X167.214 Y126.912 E39.46315
G1 X167.073 Y126.591 E39.48432
G1 X166.862 Y126.311 E39.50548
G1 X166.594 Y126.086 E39.52661
G1 X166.282 Y125.927 E39.54775
G1 X165.941 Y125.843 E39.56895
G1 X165.591 Y125.838 E39.59008
G1 X165.249 Y125.912 E39.6112
G0 F3600 X165.323 Y126.354
G1 F1350 X165.068 Y126.503 E39.62903
G1 X164.861 Y126.714 E39.64687
G1 X164.644 Y127.193 E39.67862
G1 X163.664 Y127.918 E39.75221
G1 X162.868 Y127.894 E39.80028
G1 X162.327 Y127.502 E39.84061
G1 X162.128 Y126.889 E39.87952
G1 X162.329 Y126.27 E39.91881
G1 X162.819 Y125.859 E39.95741
G1 X162.976 Y125.585 E39.97648
G1 X163.354 Y124.628 E40.03859
G1 X165.197 Y123.235 E40.17805
G1 X166.586 Y123.285 E40.26196
G1 X168.388 Y124.258 E40.38558
G1 X168.845 Y125.656 E40.47437
G1 X169.113 Y128.515 E40.64772
G1 X168.536 Y131.272 E40.81776
G1 X168.514 Y131.546 E40.83435
G1 X168.562 Y132.635 E40.90015
G1 X168.132 Y133.782 E40.9741
G1 X168.066 Y134.071 E40.992
G1 X168.08 Y134.366 E41.00983
G1 X168.172 Y134.647 E41.02767
G1 X168.322 Y134.879 E41.04435
G1 X169.968 Y136.825 E41.19821
G1 X170.756 Y139.143 E41.34601
G1 X171.46 Y142.437 E41.54935
G1 X170.766 Y145.108 E41.71594
G1 X170.731 Y145.393 E41.73328
G1 X170.743 Y147.146 E41.8391
G1 X170.824 Y147.552 E41.8641
