;FLAVOR:Marlin
;TIME:1721
;Filament used: 1.06206m
;Layer height: 0.2
;MINX:124.34
;MINY:124.84
;MINZ:0.3
;MAXX:164.16
;MAXY:175.16
;MAXZ:21.1
;Generated with Cura_SteamEngine 5.2.1
M140 S60
M105
M190 S60
M104 S230
M105
M109 S230
M82 ;absolute extrusion mode
G92 E0 ; Reset Extruder
G28 ; Home all axes
G1 Z2.0 F3000 ; Move Z Axis up little to prevent scratching of Heat Bed
G1 X0.1 Y20 Z0.3 F5000.0 ; Move to start position
G1 X0.1 Y270.0 Z0.3 F1500.0 E15 ; Draw the first line
G1 X0.4 Y270.0 Z0.3 F5000.0 ; Move to side a little
G1 X0.4 Y20 Z0.3 F1500.0 E30 ; Draw the second line
G92 E0 ; Reset Extruder
G1 Z2.0 F3000 ; Move Z Axis up little to prevent scratching of Heat Bed
G1 X5 Y20 Z0.3 F5000.0 ; Move over to

G92 E0
G92 E0
G1 F4200 E-6
;LAYER_COUNT:105
;LAYER:0
M107
G1 F600 Z0.5
G0 F3600 X125.747 Y141.879 Z0.5
;TYPE:SKIRT
G1 F600 Z0.3
G1 F4200 E0
G1 F1350 X127.742 Y140.31 E0.15322
G1 X129.851 Y138.556 E0.31881
G1 X131.895 Y136.756 E0.48322
G1 X133.869 Y134.917 E0.64609
G1 X135.831 Y132.983 E0.81239
G1 X137.689 Y131.043 E0.97455
G1 X139.53 Y129.011 E1.14008
G1 X141.372 Y126.857 E1.31117
G1 X141.938 Y126.174 E1.36472
G1 X142.313 Y125.784 E1.39738
G1 X142.741 Y125.454 E1.43001
G1 X143.213 Y125.191 E1.46262
G1 X143.719 Y125 E1.49527
G1 X144.248 Y124.886 E1.52794
G1 X145.08 Y124.84 E1.57824
G1 X154.595 Y124.84 E2.15264
G1 X155.296 Y124.85 E2.19496
G1 X155.835 Y124.898 E2.22762
G1 X156.361 Y125.024 E2.26028
G1 X156.862 Y125.227 E2.29291
G1 X157.328 Y125.501 E2.32554
G1 X157.749 Y125.841 E2.35821
G1 X158.114 Y126.239 E2.39081
G1 X158.418 Y126.687 E2.42349
G1 X158.66 Y127.197 E2.45757
G1 X159.808 Y130.059 E2.64372
G1 X160.892 Y132.541 E2.80722
G1 X162.057 Y135.018 E2.97246
G1 X163.266 Y137.412 E3.13436
G1 X163.732 Y138.304 E3.19512
G1 X163.946 Y138.801 E3.22778
G1 X164.085 Y139.323 E3.26039
G1 X164.158 Y139.973 E3.29988
G1 X164.16 Y159.35 E4.46961
G1 X164.149 Y160.055 E4.51217
G1 X164.1 Y160.594 E4.54485
G1 X163.973 Y161.119 E4.57745
G1 X163.738 Y161.684 E4.61439
G1 X162.66 Y163.762 E4.75571
G1 X161.467 Y166.212 E4.92021
G1 X160.352 Y168.678 E5.08359
G1 X159.285 Y171.223 E5.25018
G1 X159.082 Y171.753 E5.28444
G1 X158.64 Y172.854 E5.35606
G1 X158.402 Y173.339 E5.38867
G1 X158.095 Y173.784 E5.42131
G1 X157.725 Y174.179 E5.45398
G1 X157.302 Y174.516 E5.48663
G1 X156.834 Y174.786 E5.51925
G1 X156.331 Y174.985 E5.5519
G1 X155.804 Y175.107 E5.58456
G1 X155.225 Y175.16 E5.61966
G1 X145.405 Y175.16 E6.21246
G1 X144.703 Y175.15 E6.25484
G1 X144.164 Y175.102 E6.28751
G1 X143.638 Y174.976 E6.32016
G1 X143.137 Y174.773 E6.35279
G1 X142.671 Y174.499 E6.38543
G1 X142.25 Y174.159 E6.41809
G1 X141.904 Y173.796 E6.44837
G1 X140.404 Y171.994 E6.5899
G1 X138.606 Y169.953 E6.7541
G1 X136.75 Y167.964 E6.91833
G1 X134.838 Y166.028 E7.08259
G1 X132.873 Y164.146 E7.24684
G1 X130.835 Y162.304 E7.41267
G1 X128.774 Y160.543 E7.57632
G1 X126.624 Y158.809 E7.74306
G1 X125.752 Y158.125 E7.80996
G1 X125.352 Y157.761 E7.84261
G1 X125.01 Y157.342 E7.87526
G1 X124.734 Y156.877 E7.90791
G1 X124.529 Y156.377 E7.94053
G1 X124.401 Y155.852 E7.97315
G1 X124.34 Y155.237 E8.01046
G1 X124.34 Y145.405 E8.60399
G1 X124.35 Y144.703 E8.64637
G1 X124.398 Y144.164 E8.67904
G1 X124.524 Y143.638 E8.71169
G1 X124.727 Y143.137 E8.74432
G1 X125.001 Y142.671 E8.77695
G1 X125.341 Y142.25 E8.80962
G1 X125.747 Y141.879 E8.84282
G0 F3600 X125.835 Y142.369
G1 F1350 X128.024 Y140.646 E9.01099
G1 X130.13 Y138.895 E9.17632
G1 X132.193 Y137.079 E9.34224
G1 X134.202 Y135.207 E9.50801
G1 X136.112 Y133.325 E9.66988
G1 X138.038 Y131.314 E9.83797
G1 X139.864 Y129.298 E10.00217
G1 X141.706 Y127.142 E10.17336
G1 X142.276 Y126.455 E10.22724
G1 X142.63 Y126.091 E10.25789
G1 X143.036 Y125.788 E10.28848
G1 X143.485 Y125.552 E10.3191
G1 X143.965 Y125.389 E10.3497
G1 X144.737 Y125.28 E10.39676
G1 X154.589 Y125.28 E10.9915
G1 X155.29 Y125.29 E11.03382
G1 X155.795 Y125.337 E11.06444
G1 X156.286 Y125.463 E11.09504
G1 X156.752 Y125.665 E11.1257
G1 X157.18 Y125.937 E11.15631
G1 X157.56 Y126.273 E11.18694
G1 X157.882 Y126.664 E11.21751
G1 X158.168 Y127.15 E11.25155
G1 X159.397 Y130.218 E11.45107
G1 X160.498 Y132.736 E11.61697
G1 X161.651 Y135.189 E11.78059
G1 X162.876 Y137.616 E11.94471
G1 X163.342 Y138.508 E12.00546
G1 X163.541 Y138.975 E12.0361
G1 X163.664 Y139.467 E12.06672
G1 X163.72 Y140.02 E12.10027
G1 X163.72 Y159.343 E13.26675
G1 X163.709 Y160.048 E13.30931
G1 X163.661 Y160.553 E13.33993
G1 X163.534 Y161.044 E13.37055
G1 X163.347 Y161.481 E13.39924
G1 X162.267 Y163.563 E13.54083
G1 X161.077 Y166.007 E13.70493
G1 X159.945 Y168.509 E13.87071
G1 X158.874 Y171.064 E14.03795
G1 X158.673 Y171.589 E14.07188
G1 X158.231 Y172.69 E14.1435
G1 X158.006 Y173.144 E14.17409
G1 X157.712 Y173.557 E14.2047
G1 X157.357 Y173.919 E14.2353
G1 X156.949 Y174.221 E14.26595
G1 X156.499 Y174.455 E14.29656
G1 X156.018 Y174.615 E14.32717
G1 X155.256 Y174.72 E14.3736
G1 X145.411 Y174.72 E14.96791
G1 X144.709 Y174.71 E15.0103
G1 X144.204 Y174.663 E15.04091
G1 X143.713 Y174.537 E15.07151
G1 X143.247 Y174.335 E15.10217
G1 X142.819 Y174.063 E15.13279
G1 X142.271 Y173.549 E15.17814
G1 X140.743 Y171.713 E15.32234
G1 X138.931 Y169.656 E15.48782
G1 X137.073 Y167.665 E15.65222
G1 X135.144 Y165.712 E15.81793
G1 X133.161 Y163.813 E15.98368
G1 X131.124 Y161.971 E16.14946
G1 X129.044 Y160.195 E16.31457
G1 X126.935 Y158.494 E16.47814
G1 X126.023 Y157.779 E16.54809
G1 X125.65 Y157.436 E16.57868
G1 X125.335 Y157.038 E16.60932
G1 X125.087 Y156.596 E16.63992
G1 X124.911 Y156.12 E16.67055
G1 X124.812 Y155.623 E16.70115
G1 X124.78 Y154.92 E16.74363
G1 X124.78 Y145.411 E17.31766
G1 X124.79 Y144.709 E17.36004
G1 X124.837 Y144.204 E17.39066
G1 X124.963 Y143.713 E17.42126
G1 X125.165 Y143.247 E17.45192
G1 X125.437 Y142.819 E17.48253
G1 X125.835 Y142.369 E17.5188
G1 F4200 E11.5188
G1 F600 Z0.5
;MESH:profile_fixation_1.STL(2)
G0 F3600 X134.436 Y152.817 Z0.5
;TYPE:WALL-INNER
G1 F600 Z0.3
G1 F4200 E17.5188
G1 F1350 X133.636 Y153.091 E17.56985
G1 X133.099 Y153.148 E17.60245
G1 X132.489 Y153.103 E17.63937
G1 X131.826 Y152.933 E17.68069
G1 X131.23 Y152.6 E17.7219
G1 X130.994 Y152.422 E17.73975
G1 X130.594 Y152.025 E17.77377
G1 F1282.9 X130.183 Y151.42 E17.82023
G1 F1162.4 X129.883 Y150.682 E17.87608
G1 F1029.5 X129.804 Y150.538 E17.88908
G1 F977 X129.775 Y149.945 E17.93861
G1 F980.2 X129.802 Y149.496 E17.97601
G1 F1064.5 X129.903 Y149.293 E17.99336
G1 F1263.8 X130.17 Y148.624 E18.03981
G1 F1350 X130.532 Y148.049 E18.08083
G1 X130.982 Y147.571 E18.12046
G1 X131.544 Y147.209 E18.16081
G1 X132.076 Y146.99 E18.19554
G1 X132.476 Y146.889 E18.22045
G1 X133.143 Y146.846 E18.2608
G1 X133.84 Y146.97 E18.30353
G1 X134.422 Y147.191 E18.34112
G1 X134.628 Y147.309 E18.35545
G1 X135.177 Y147.708 E18.39642
G1 X135.658 Y148.324 E18.4436
G1 X135.949 Y148.898 E18.48245
G1 F1108.2 X136.183 Y149.37 E18.52119
G1 F969 X136.227 Y150.034 E18.57715
G1 F977 X136.193 Y150.558 E18.62096
G1 F1010.2 X136.133 Y150.67 E18.63121
G1 F1195.2 X135.859 Y151.306 E18.67843
G1 F1350 X135.585 Y151.79 E18.712
G1 X135.406 Y152.025 E18.72983
G1 X135.018 Y152.412 E18.76292
G1 X134.436 Y152.817 E18.80572
G0 F3600 X136.9 Y154.15
G1 F1350 X136.9 Y151.195 E18.9841
G1 F1120.8 X136.81 Y150.611 E19.02707
G1 F977 X136.823 Y150.034 E19.07521
G1 F969 X136.804 Y149.292 E19.13764
G1 F1085.9 X136.9 Y148.857 E19.17107
G1 F1317.1 X136.9 Y146.905 E19.29185
G1 F1350 X136.9 Y145.85 E19.35554
G1 X129.101 Y145.851 E19.82634
G1 X129.1 Y148.693 E19.99791
G1 F1127.1 X129.188 Y149.461 E20.0538
G1 F980.2 X129.178 Y149.96 E20.0953
G1 F977 X129.189 Y150.591 E20.14794
G1 F1029.5 X129.147 Y150.796 E20.1645
G1 F1219.7 X129.1 Y151.394 E20.20458
G1 F1350 X129.101 Y154.149 E20.37089
G1 X136.9 Y154.15 E20.8417
G0 F3600 X137.34 Y154.59
G1 F1350 X137.34 Y146.905 E21.30562
G1 X137.34 Y145.41 E21.39587
G1 X128.661 Y145.411 E21.9198
G1 X128.661 Y154.589 E22.47384
G1 X137.34 Y154.59 E22.99777
G0 F3600 X137.11 Y154.36
G0 X134.368 Y152.639
G0 X134.232 Y152.422
G1 F1350 X133.535 Y152.661 E23.04225
G1 X133.099 Y152.708 E23.06872
G1 X132.524 Y152.664 E23.10354
G1 X131.986 Y152.519 E23.13717
G1 X131.368 Y152.172 E23.17996
G1 X130.904 Y151.713 E23.21936
G1 X130.556 Y151.19 E23.25728
G1 X130.325 Y150.447 E23.30425
G1 X130.293 Y149.918 E23.33624
G1 X130.325 Y149.555 E23.35824
G1 X130.495 Y148.973 E23.39484
G1 X130.794 Y148.414 E23.43311
G1 X131.221 Y147.958 E23.47083
G1 X131.612 Y147.673 E23.50003
G1 X132.089 Y147.449 E23.53185
G1 X132.516 Y147.331 E23.55859
G1 X133.113 Y147.288 E23.59472
G1 X133.763 Y147.403 E23.63457
G1 X134.246 Y147.594 E23.66592
G1 X134.37 Y147.665 E23.67455
G1 X134.875 Y148.036 E23.71238
G1 X135.312 Y148.595 E23.75521
G1 X135.546 Y149.075 E23.78745
G1 X135.683 Y149.619 E23.82131
G1 X135.708 Y150.097 E23.85021
G1 X135.671 Y150.466 E23.87259
G1 X135.517 Y151.017 E23.90713
G1 X135.156 Y151.653 E23.95128
G1 X134.708 Y152.1 E23.98948
G1 X134.232 Y152.422 E24.02417
G0 F3600 X133.456 Y152.223
;TYPE:WALL-OUTER
G1 F1350 X133.081 Y152.268 E24.04697
G1 X132.56 Y152.226 E24.07853
G1 X132.174 Y152.114 E24.10279
G1 X131.635 Y151.818 E24.13991
G1 X131.214 Y151.401 E24.17568
G1 X130.957 Y150.998 E24.20454
G1 X130.759 Y150.371 E24.24423
G1 X130.733 Y149.884 E24.27367
G1 X130.771 Y149.565 E24.29306
G1 X130.934 Y149.06 E24.3251
G1 X131.144 Y148.692 E24.35068
G1 X131.534 Y148.268 E24.38545
G1 X131.9 Y148.014 E24.41235
G1 X132.267 Y147.852 E24.43656
G1 X132.592 Y147.765 E24.45687
G1 X133.078 Y147.729 E24.48629
G1 X133.686 Y147.837 E24.52357
G1 X134.07 Y147.998 E24.54871
G1 X134.112 Y148.021 E24.5516
G1 X134.552 Y148.342 E24.58448
G1 X134.966 Y148.866 E24.62479
G1 X135.155 Y149.286 E24.65259
G1 X135.238 Y149.611 E24.67284
G1 X135.27 Y150.055 E24.69971
G1 X135.24 Y150.373 E24.719
G1 X135.095 Y150.871 E24.75031
G1 X134.805 Y151.381 E24.78572
G1 X134.359 Y151.819 E24.82346
G1 X134.007 Y152.034 E24.84836
G1 X133.456 Y152.223 E24.88352
G0 F3600 X133.258 Y152.246
G0 X133.34 Y152.946
G0 X137.11 Y154.36
G0 X137.78 Y155.03
G1 F1350 X137.78 Y146.905 E25.37401
G1 X137.78 Y144.97 E25.49082
G1 X128.221 Y144.971 E26.06787
G1 X128.221 Y155.029 E26.67504
G1 X137.78 Y155.03 E27.25209
G0 F3600 X137.78 Y154.83
G0 X137.11 Y154.36
G0 X135.471 Y147.403
;TYPE:SKIN
G1 F1350 X136.094 Y148.208 E27.31354
G1 X136.44 Y148.9 E27.36024
G1 X136.482 Y148.679 E27.37382
G1 X136.482 Y146.268 E27.51937
G1 X134.007 Y146.268 E27.66878
G1 X133.939 Y146.268 E27.67288
G1 F1140.1 X133.201 Y146.35 E27.72596
G1 X133.953 Y146.568 E27.78192
G1 F1350 X134.702 Y146.847 E27.83017
G1 X135.471 Y147.403 E27.88746
G0 F3600 X133.201 Y146.35
G1 F944.4 X132.349 Y146.377 E27.96102
G0 F3600 X130.204 Y147.792
G1 F1350 X130.608 Y147.356 E27.9969
G1 X131.239 Y146.881 E28.04458
G1 X131.944 Y146.592 E28.09058
G1 F1083.9 X132.349 Y146.377 E28.12505
G1 F1080 X131.91 Y146.269 E28.15917
G1 F1343.9 X129.52 Y146.27 E28.3041
G1 F1350 X129.52 Y148.685 E28.44989
G1 X129.556 Y148.971 E28.46729
G1 X129.794 Y148.437 E28.50258
G1 X130.204 Y147.792 E28.54872
G0 F3600 X129.866 Y147.911
G1 F1350 X129.739 Y147.784 E28.55956
G0 F3600 X130.126 Y147.549
G1 F1350 X129.739 Y147.162 E28.5926
G0 F3600 X129.739 Y146.54
G1 F1350 X130.427 Y147.228 E28.65134
G0 F3600 X130.775 Y146.954
G1 F1350 X130.311 Y146.489 E28.69099
G0 F3600 X130.933 Y146.489
G1 F1350 X131.13 Y146.686 E28.70781
G0 F3600 X134.664 Y146.487
G1 F1350 X134.881 Y146.704 E28.72633
G0 F3600 X135.287 Y146.487
G1 F1350 X136.262 Y147.462 E28.80957
G0 F3600 X136.262 Y146.84
G1 F1350 X135.909 Y146.487 E28.83971
G0 F3600 X135.912 Y150.046
G0 X135.285 Y152.731
G1 F1350 X134.654 Y153.174 E28.88625
G1 F1195.2 X133.728 Y153.623 E28.95642
G1 X134.689 Y153.731 E29.02236
G1 F1350 X136.482 Y153.732 E29.1306
G1 X136.482 Y151.239 E29.2811
G1 X136.435 Y151.08 E29.29111
G1 X136.225 Y151.511 E29.32005
G1 X135.95 Y151.993 E29.35355
G1 X135.721 Y152.298 E29.37657
G1 X135.285 Y152.731 E29.41367
G0 F3600 X133.739 Y153.617
G1 F931 X133.099 Y153.649 E29.46976
G1 F935.4 X132.281 Y153.619 E29.54107
G0 F3600 X131.029 Y152.966
G1 F1350 X130.702 Y152.719 E29.56581
G1 X130.299 Y152.32 E29.60004
G1 X129.871 Y151.71 E29.64503
G1 X129.57 Y151.087 E29.6868
G1 X129.518 Y151.412 E29.70666
G1 X129.519 Y153.731 E29.84666
G1 X131.441 Y153.73 E29.96268
G1 F1122.9 X132.191 Y153.641 E30.0175
G1 F926.7 X132.281 Y153.619 E30.02564
G1 F1076.1 X131.491 Y153.227 E30.09243
G1 F1350 X131.029 Y152.966 E30.12447
G0 F3600 X129.863 Y153.509
G1 F1350 X129.738 Y153.384 E30.13514
G0 F3600 X129.738 Y152.761
G1 F1350 X130.485 Y153.509 E30.19895
G0 F3600 X131.108 Y153.509
G1 F1350 X129.739 Y152.14 E30.31583
G1 X129.662 Y152.063
G0 F3600 X131.894 Y152.703
G0 X134.712 Y153.379
G1 F1350 X134.842 Y153.51 E30.32697
G0 F3600 X135.09 Y153.135
G1 F1350 X135.465 Y153.51 E30.35898
G0 F3600 X136.087 Y153.51
G1 F1350 X135.453 Y152.876 E30.41311
G0 F3600 X135.763 Y152.563
G1 F1350 X136.262 Y153.063 E30.45575
G0 F3600 X136.262 Y152.44
G1 F1350 X136.038 Y152.217 E30.47483
G1 F4200 E24.47483
G1 F600 Z0.5
;MESH:??querre_1.STL
G0 F3600 X136.038 Y152.217 Z0.5
G0 X140.601 Y158.899
;TYPE:WALL-INNER
G1 F600 Z0.3
G1 F4200 E30.47483
G1 F1350 X159.4 Y158.9 E31.60968
G1 X159.4 Y145.319 E32.42952
G1 X159.4 Y141.1 E32.68421
G1 X140.601 Y141.101 E33.81905
G1 X140.601 Y158.899 E34.89347
G0 F3600 X148.832 Y153.076
G1 F1350 X148.176 Y152.855 E34.93526
G1 X147.593 Y152.52 E34.97585
G1 X146.984 Y151.912 E35.02779
G1 X146.65 Y151.339 E35.06783
G1 X146.451 Y150.784 E35.10343
G1 X146.356 Y150.16 E35.14153
G1 X146.363 Y149.751 E35.16622
G1 X146.449 Y149.222 E35.19858
G1 X146.677 Y148.609 E35.23806
G1 X146.798 Y148.39 E35.25316
G1 X147.212 Y147.837 E35.29486
G1 X147.576 Y147.507 E35.32452
G1 X148.093 Y147.186 E35.36126
G1 X148.77 Y146.937 E35.4048
G1 X149.304 Y146.859 E35.43738
G1 X149.855 Y146.875 E35.47066
G1 X150.148 Y146.924 E35.48859
G1 X150.709 Y147.099 E35.52407
G1 X150.969 Y147.22 E35.54138
G1 X151.519 Y147.568 E35.58067
G1 X152.006 Y148.096 E35.62403
G1 X152.35 Y148.661 E35.66396
G1 X152.549 Y149.216 E35.69955
G1 X152.644 Y149.84 E35.73766
G1 X152.602 Y150.56 E35.7812
G1 X152.456 Y151.082 E35.81392
G1 X152.19 Y151.657 E35.85216
G1 X151.707 Y152.247 E35.89819
G1 X151.315 Y152.572 E35.92893
G1 X150.801 Y152.868 E35.96474
G1 X150.353 Y153.029 E35.99348
G1 X149.922 Y153.121 E36.02008
G1 X149.428 Y153.149 E36.04995
G1 X148.832 Y153.076 E36.0862
G0 F3600 X148.895 Y152.64
G1 F1350 X148.332 Y152.444 E36.12218
G1 X147.858 Y152.163 E36.15545
G1 X147.339 Y151.646 E36.19967
G1 X147.059 Y151.176 E36.2327
G1 X146.884 Y150.705 E36.26303
G1 X146.796 Y150.148 E36.29707
G1 X146.815 Y149.644 E36.32752
G1 X146.918 Y149.183 E36.35603
G1 X147.157 Y148.644 E36.39163
G1 X147.439 Y148.246 E36.42107
G1 X147.736 Y147.942 E36.44673
G1 X148.258 Y147.594 E36.4846
G1 X148.848 Y147.37 E36.5227
G1 X149.304 Y147.299 E36.55056
G1 X149.933 Y147.318 E36.58854
G1 X150.661 Y147.545 E36.63458
G1 X151.229 Y147.911 E36.67537
G1 X151.675 Y148.386 E36.7147
G1 X151.942 Y148.824 E36.74567
G1 X152.116 Y149.295 E36.77598
G1 X152.204 Y149.84 E36.80931
G1 X152.16 Y150.523 E36.85062
G1 X152.034 Y150.955 E36.87779
G1 X151.842 Y151.362 E36.90495
G1 X151.5 Y151.827 E36.9398
G1 X151.175 Y152.13 E36.96662
G1 X150.693 Y152.439 E37.00118
G1 X150.261 Y152.599 E37.02899
G1 X149.846 Y152.688 E37.05462
G1 X149.428 Y152.709 E37.07988
G1 X148.895 Y152.64 E37.11233
G0 F3600 X148.858 Y152.896
G0 X140.39 Y159.11
G0 X140.161 Y159.339
G1 F1350 X159.84 Y159.34 E38.30029
G1 X159.84 Y145.319 E39.1467
G1 X159.84 Y140.66 E39.42795
G1 X140.161 Y140.661 E40.61591
G1 X140.161 Y159.339 E41.74345
G0 F3600 X139.721 Y159.779
;TYPE:WALL-OUTER
G1 F1350 X160.28 Y159.78 E42.98454
G1 X160.28 Y145.319 E43.85751
