;FLAVOR:Marlin
;TIME:2263
;Filament used: 2.42154m
;Layer height: 0.16
;MINX:132.107
;MINY:97.783
;MINZ:0.3
;MAXX:167.911
;MAXY:202.228
;MAXZ:19.8
;Generated with Cura_SteamEngine 5.2.1
M140 S60
M105
M190 S60
M104 S200
M105
M109 S200
M82 ;absolute extrusion mode
G92 E0 ; Reset Extruder
G28 ; Home all axes
G1 Z2.0 F3000 ; Move Z Axis up little to prevent scratching of Heat Bed
G1 X0.1 Y20 Z0.3 F5000.0 ; Move to start position
G1 X0.1 Y270.0 Z0.3 F1500.0 E15 ; Draw the first line
G1 X0.4 Y270.0 Z0.3 F5000.0 ; Move to side a little
G1 X0.4 Y20 Z0.3 F1500.0 E30 ; Draw the second line
G92 E0 ; Reset Extruder
G1 Z2.0 F3000 ; Move Z Axis up little to prevent scratching of Heat Bed
G1 X5 Y20 Z0.3 F5000.0 ; Move over to

G92 E0
G92 E0
G1 F4200 E-6
;LAYER_COUNT:77
;LAYER:0
M107
G1 F600 Z0.5
G0 F3600 X148.668 Y100.435 Z0.5
;TYPE:SKIRT
G1 F600 Z0.3
G1 F4200 E0
G1 F1500 X149.245 Y99.671 E0.0578
G1 X149.86 Y99.01 E0.1123
G1 X150.718 Y98.408 E0.17557
G1 X151.617 Y98.019 E0.2347
G1 X152.326 Y97.846 E0.27876
G1 X153.202 Y97.783 E0.33178
G1 X153.742 Y97.804 E0.3644
G1 X154.398 Y97.928 E0.4047
G1 X154.916 Y98.085 E0.43738
G1 X155.623 Y98.42 E0.48461
G1 X156.282 Y98.844 E0.53191
G1 X156.684 Y99.172 E0.56323
G1 X157.419 Y99.817 E0.62226
G1 X158.152 Y100.513 E0.68328
G1 X158.828 Y101.195 E0.74125
G1 X159.732 Y102.162 E0.82116
G1 X160.433 Y102.961 E0.88533
G1 X161.445 Y104.248 E0.98416
G1 X162.051 Y105.078 E1.0462
G1 X162.962 Y106.45 E1.14562
G1 X163.418 Y107.186 E1.19789
G1 X164.26 Y108.72 E1.30352
G1 X164.766 Y109.723 E1.37134
G1 X165.126 Y110.496 E1.42281
G1 X165.333 Y110.971 E1.45409
G1 X165.792 Y112.106 E1.528
G1 X166.251 Y113.389 E1.61026
G1 X166.562 Y114.388 E1.67342
G1 X166.818 Y115.3 E1.7306
G1 X167.089 Y116.386 E1.79817
G1 X167.272 Y117.226 E1.85007
G1 X167.42 Y118 E1.89764
G1 X167.529 Y118.67 E1.93862
G1 X167.686 Y119.78 E2.00629
G1 X167.826 Y121.404 E2.10469
G1 X167.891 Y122.651 E2.18007
G1 X167.911 Y123.514 E2.23218
G1 X167.872 Y124.23 E2.27547
G1 X166.211 Y147.027 E3.65531
G1 X166.133 Y147.954 E3.71147
G1 X166.022 Y148.979 E3.7737
G1 X165.87 Y150.092 E3.84152
G1 X165.689 Y151.183 E3.90828
G1 X165.542 Y151.938 E3.95471
G1 X165.225 Y153.361 E4.04272
G1 X162.049 Y166.639 E4.86688
G1 X161.451 Y169.303 E5.0317
G1 X160.935 Y171.952 E5.19462
G1 X160.484 Y174.675 E5.36124
G1 X160.118 Y177.35 E5.52423
G1 X159.827 Y180.053 E5.68834
G1 X159.608 Y182.813 E5.85548
G1 X159.471 Y185.494 E6.01754
G1 X159.414 Y187.743 E6.15335
G1 X159.398 Y188.909 E6.22374
G1 X159.34 Y189.564 E6.26344
G1 X158.89 Y191.204 E6.3661
G1 X158.473 Y192.84 E6.46802
G1 X158.112 Y194.207 E6.55337
G1 X157.894 Y194.836 E6.59355
G1 X157.401 Y195.695 E6.65334
G1 X157.023 Y196.232 E6.69298
G1 X155.96 Y197.273 E6.7828
G1 X154.589 Y198.657 E6.9004
G1 X154.51 Y198.726 E6.90673
G1 X153.614 Y199.639 E6.98396
G1 X153.11 Y200.082 E7.02446
G1 X152.338 Y200.534 E7.07847
G1 X151.722 Y200.836 E7.11988
G1 X150.075 Y201.264 E7.22261
G1 X148.427 Y201.724 E7.3259
G1 X147.046 Y202.099 E7.41228
G1 X146.394 Y202.225 E7.45237
G1 X145.404 Y202.228 E7.51213
G1 X144.742 Y202.17 E7.55225
G1 X143.711 Y201.887 E7.61679
G1 X142.56 Y201.554 E7.68912
G1 X140.018 Y200.889 E7.84774
G1 X139.358 Y200.663 E7.88985
G1 X138.613 Y200.219 E7.94221
G1 X138.079 Y199.845 E7.98157
G1 X137.201 Y198.957 E8.05695
G1 X136.485 Y198.212 E8.11933
G1 X135.007 Y196.76 E8.2444
G1 X134.634 Y196.383 E8.27642
G1 X134.215 Y195.893 E8.31534
G1 X133.734 Y195.063 E8.37325
G1 X133.461 Y194.477 E8.41227
G1 X133.137 Y193.241 E8.48941
G1 X132.91 Y192.316 E8.5469
G1 X132.521 Y190.873 E8.63712
G1 X132.243 Y189.876 E8.6996
G1 X132.11 Y189.211 E8.74054
G1 X132.107 Y188.271 E8.79729
G1 X132.156 Y187.577 E8.83929
G1 X132.391 Y186.752 E8.89107
G1 X133.098 Y184.104 E9.05652
G1 X133.373 Y183.005 E9.12491
G1 X133.543 Y182.491 E9.15759
G1 X133.792 Y181.979 E9.19196
G1 X134.242 Y181.223 E9.24507
G1 X135.521 Y179.156 E9.39181
G1 X136.889 Y176.798 E9.55638
G1 X138.195 Y174.394 E9.72153
G1 X139.415 Y171.986 E9.88449
G1 X140.593 Y169.491 E10.05105
G1 X141.673 Y167.02 E10.21384
G1 X142.701 Y164.483 E10.37909
G1 X143.645 Y161.947 E10.54244
G1 X144.532 Y159.339 E10.70873
G1 X145.328 Y156.757 E10.87184
G1 X146.059 Y154.13 E11.03645
G1 X146.719 Y151.461 E11.20242
G1 X147.296 Y148.818 E11.36573
G1 X147.8 Y146.148 E11.52976
G1 X147.9 Y145.502 E11.56922
G1 X147.929 Y145.377 E11.57697
G1 X148.146 Y144.079 E11.65641
G1 X148.36 Y142.984 E11.72376
G1 X148.519 Y142.237 E11.76987
G1 X149.006 Y139.577 E11.93311
G1 X149.418 Y136.901 E12.09656
G1 X149.76 Y134.17 E12.26271
G1 X150.02 Y131.482 E12.42573
G1 X150.206 Y128.734 E12.592
G1 X150.313 Y126.038 E12.75488
G1 X150.345 Y123.277 E12.92157
G1 X150.299 Y120.587 E13.08398
G1 X150.176 Y117.861 E13.2487
G1 X149.975 Y115.138 E13.41353
G1 X149.699 Y112.431 E13.57779
G1 X149.344 Y109.721 E13.74279
G1 X148.917 Y107.049 E13.90613
G1 X148.421 Y104.414 E14.06799
G1 X148.165 Y103.147 E14.14602
G1 X148.098 Y102.61 E14.17869
G1 X148.11 Y102.069 E14.21136
G1 X148.202 Y101.537 E14.24395
G1 X148.371 Y101.023 E14.27661
G1 X148.668 Y100.435 E14.31638
G0 F3600 X149.183 Y100.483
G1 F1500 X149.596 Y99.936 E14.35776
G1 X150.15 Y99.341 E14.40683
G1 X150.932 Y98.793 E14.46448
G1 X151.757 Y98.436 E14.51875
G1 X152.429 Y98.275 E14.56046
G1 X153.218 Y98.223 E14.60819
G1 X153.724 Y98.245 E14.63877
G1 X154.302 Y98.358 E14.67432
G1 X154.787 Y98.507 E14.70495
G1 X155.426 Y98.813 E14.74772
G1 X156.006 Y99.187 E14.78938
G1 X156.395 Y99.504 E14.81967
G1 X157.117 Y100.136 E14.8776
G1 X157.772 Y100.756 E14.93204
G1 X158.437 Y101.423 E14.9889
G1 X159.41 Y102.462 E15.07483
G1 X160.093 Y103.241 E15.13737
G1 X161.091 Y104.509 E15.23478
G1 X161.597 Y105.196 E15.28629
G1 X162.588 Y106.682 E15.39411
G1 X163.055 Y107.434 E15.44755
G1 X163.815 Y108.819 E15.54292
G1 X164.419 Y110.017 E15.62391
G1 X164.849 Y110.946 E15.68571
G1 X165.431 Y112.394 E15.77992
G1 X165.79 Y113.398 E15.84428
G1 X166.138 Y114.507 E15.91445
G1 X166.418 Y115.51 E15.97731
G1 X166.659 Y116.48 E16.03765
G1 X166.84 Y117.308 E16.08881
G1 X166.988 Y118.082 E16.13638
G1 X167.093 Y118.731 E16.17607
G1 X167.256 Y119.893 E16.2469
G1 X167.387 Y121.427 E16.33985
G1 X167.452 Y122.674 E16.41523
G1 X167.471 Y123.512 E16.46583
G1 X167.438 Y124.134 E16.50343
G1 X165.773 Y146.99 E17.88683
G1 X165.696 Y147.907 E17.94239
G1 X165.597 Y148.831 E17.99848
G1 X165.436 Y150.02 E18.07092
G1 X165.255 Y151.111 E18.13768
G1 X165.113 Y151.843 E18.18269
G1 X164.797 Y153.259 E18.27027
G1 X161.621 Y166.537 E19.09444
G1 X161.025 Y169.196 E19.25894
G1 X160.497 Y171.902 E19.42537
G1 X160.048 Y174.616 E19.59143
G1 X159.68 Y177.311 E19.75563
G1 X159.389 Y180.008 E19.91939
G1 X159.171 Y182.755 E20.08574
G1 X159.031 Y185.5 E20.25166
G1 X158.974 Y187.732 E20.38645
G1 X158.958 Y188.902 E20.45708
G1 X158.904 Y189.487 E20.49255
G1 X158.48 Y191.032 E20.58926
G1 X158.047 Y192.727 E20.69487
G1 X157.686 Y194.094 E20.78022
G1 X157.519 Y194.573 E20.81084
G1 X157.137 Y195.31 E20.86096
G1 X156.679 Y195.953 E20.90861
G1 X155.648 Y196.963 E20.99574
G1 X154.277 Y198.347 E21.11334
G1 X154.202 Y198.411 E21.11929
G1 X153.3 Y199.331 E21.19707
G1 X152.842 Y199.729 E21.2337
G1 X152.116 Y200.154 E21.28448
G1 X151.56 Y200.423 E21.32177
G1 X149.989 Y200.832 E21.41977
G1 X148.312 Y201.299 E21.52485
G1 X146.931 Y201.674 E21.61124
G1 X146.339 Y201.786 E21.64761
G1 X145.409 Y201.788 E21.70375
G1 X144.818 Y201.734 E21.73958
G1 X143.834 Y201.464 E21.80118
G1 X142.688 Y201.132 E21.8732
G1 X140.129 Y200.463 E22.03287
G1 X139.537 Y200.258 E22.07069
G1 X138.838 Y199.841 E22.11983
G1 X138.353 Y199.497 E22.15572
G1 X137.518 Y198.652 E22.22743
G1 X136.799 Y197.905 E22.29002
G1 X135.32 Y196.451 E22.41523
G1 X134.947 Y196.074 E22.44724
G1 X134.499 Y195.506 E22.49091
G1 X134.118 Y194.849 E22.53676
G1 X133.872 Y194.312 E22.57242
G1 X133.565 Y193.136 E22.64579
G1 X133.344 Y192.235 E22.70179
G1 X132.945 Y190.755 E22.79432
G1 X132.667 Y189.758 E22.85681
G1 X132.55 Y189.156 E22.89383
G1 X132.547 Y188.269 E22.94737
G1 X132.594 Y187.644 E22.98521
G1 X132.822 Y186.843 E23.03548
G1 X133.526 Y184.205 E23.20031
G1 X133.8 Y183.111 E23.26839
G1 X133.996 Y182.531 E23.30534
G1 X134.473 Y181.684 E23.36403
G1 X135.899 Y179.382 E23.52749
G1 X137.285 Y176.991 E23.69433
G1 X138.573 Y174.62 E23.85722
G1 X139.819 Y172.162 E24.02357
G1 X140.988 Y169.686 E24.18886
G1 X142.084 Y167.179 E24.35403
G1 X143.103 Y164.662 E24.51796
G1 X144.071 Y162.06 E24.68555
G1 X144.941 Y159.503 E24.8486
G1 X145.755 Y156.865 E25.01526
G1 X146.483 Y154.247 E25.1793
G1 X147.15 Y151.554 E25.34678
G1 X147.732 Y148.887 E25.51156
G1 X148.232 Y146.235 E25.67448
G1 X148.335 Y145.57 E25.7151
G1 X148.363 Y145.453 E25.72236
G1 X148.58 Y144.152 E25.80199
G1 X148.791 Y143.076 E25.86818
G1 X148.947 Y142.342 E25.91348
G1 X149.44 Y139.65 E26.07869
G1 X149.855 Y136.956 E26.24324
G1 X150.196 Y134.23 E26.40908
G1 X150.458 Y131.518 E26.57356
G1 X150.647 Y128.729 E26.74231
G1 X150.753 Y126.06 E26.90355
G1 X150.784 Y123.311 E27.06951
G1 X150.738 Y120.56 E27.23561
G1 X150.613 Y117.81 E27.40179
G1 X150.413 Y115.098 E27.56595
G1 X150.137 Y112.394 E27.73003
G1 X149.78 Y109.667 E27.89606
G1 X149.344 Y106.936 E28.06301
G1 X148.854 Y104.333 E28.2229
G1 X148.597 Y103.06 E28.3013
G1 X148.536 Y102.556 E28.33195
G1 X148.555 Y102.049 E28.36257
G1 X148.653 Y101.552 E28.39315
G1 X148.828 Y101.076 E28.42377
G1 X149.183 Y100.483 E28.46549
G1 F4200 E22.46549
G1 F600 Z0.5
;MESH:pince_engrenage.STL
G0 F3600 X145.983 Y193.678 Z0.5
;TYPE:WALL-INNER
G1 F600 Z0.3
G1 F4200 E28.46549
G1 F1500 X145.184 Y193.65 E28.51375
G1 X144.598 Y193.547 E28.54967
G1 X143.689 Y193.248 E28.60744
G1 X143.034 Y192.9 E28.65221
G1 X142.341 Y192.376 E28.70466
G1 X141.837 Y191.848 E28.74872
G1 X141.446 Y191.323 E28.78824
G1 X140.994 Y190.486 E28.84566
G1 X140.74 Y189.539 E28.90485
G1 X140.652 Y188.53 E28.96599
G1 X140.689 Y187.913 E29.00331
G1 X140.837 Y187.203 E29.04709
G1 X141.06 Y186.567 E29.08778
G1 X141.441 Y185.844 E29.13711
G1 X141.859 Y185.277 E29.17963
G1 X142.592 Y184.564 E29.24136
G1 X143.232 Y184.138 E29.28777
G1 X144.189 Y183.718 E29.35087
G1 X144.833 Y183.56 E29.39089
G1 X145.784 Y183.472 E29.44855
G1 X146.574 Y183.543 E29.49643
G1 X147.167 Y183.675 E29.53311
G1 X147.846 Y183.927 E29.57683
G1 X148.46 Y184.254 E29.61882
G1 X149.112 Y184.738 E29.66784
G1 X149.817 Y185.489 E29.73002
G1 X150.191 Y186.073 E29.77189
G1 X150.49 Y186.702 E29.81393
G1 X150.681 Y187.267 E29.84993
G1 X150.816 Y188.005 E29.89522
G1 X150.853 Y188.711 E29.9379
G1 X150.763 Y189.542 E29.98836
G1 X150.614 Y190.123 E30.02457
G1 X150.32 Y190.85 E30.07191
G1 X149.954 Y191.474 E30.11558
G1 X149.291 Y192.26 E30.17765
G1 X148.468 Y192.9 E30.24059
G1 X147.815 Y193.247 E30.28523
G1 X146.857 Y193.562 E30.3461
G1 X145.983 Y193.678 E30.39933
G0 F3600 X144.77 Y195.215
G1 F1500 X144.986 Y195.398 E30.41642
G1 X145.17 Y195.674 E30.43644
G1 X145.75 Y196.917 E30.51925
G1 X146.382 Y195.562 E30.6095
G1 X146.689 Y195.243 E30.63623
G1 X146.998 Y195.088 E30.6571
G1 X147.991 Y194.822 E30.71916
G1 X148.24 Y194.818 E30.73419
G1 X148.696 Y194.944 E30.76275
G1 X149.919 Y195.803 E30.85297
G1 X149.802 Y194.442 E30.93543
G1 X149.834 Y194.085 E30.95707
G1 X149.897 Y193.905 E30.96858
G1 X150.083 Y193.62 E30.98913
G1 X150.716 Y192.963 E31.0442
G1 X151.106 Y192.702 E31.07253
G1 X151.47 Y192.618 E31.09508
G1 X152.971 Y192.748 E31.18603
G1 X152.11 Y191.515 E31.27681
G1 X152.008 Y191.211 E31.29617
G1 X152.01 Y190.763 E31.32322
G1 X152.27 Y189.798 E31.38355
G1 X152.453 Y189.467 E31.40638
G1 X152.724 Y189.215 E31.42872
G1 X154.092 Y188.578 E31.51982
G1 X152.852 Y188 E31.6024
G1 X152.583 Y187.816 E31.62208
G1 X152.424 Y187.632 E31.63676
G1 X152.296 Y187.384 E31.65361
G1 X151.989 Y186.326 E31.72011
G1 X152.02 Y185.894 E31.74625
G1 X152.169 Y185.557 E31.7685
G1 X153.326 Y183.898 E31.8906
G1 X153.184 Y183.374 E31.92337
G1 X153.213 Y183.106 E31.93964
G1 X160.785 Y151.452 E33.90442
G1 X160.943 Y150.687 E33.95157
G1 X161.093 Y149.86 E34.00231
G1 X161.254 Y148.793 E34.06745
G1 X161.353 Y147.962 E34.11797
G1 X161.429 Y147.152 E34.16708
G1 X162.589 Y131.22 E35.1314
G1 F1309.5 X162.597 Y130.236 E35.19944
G1 X162.272 Y131.166 E35.26756
G1 F1500 X162.055 Y131.889 E35.31313
G1 X161.694 Y132.967 E35.38176
G1 X161.323 Y133.928 E35.44395
G1 X160.885 Y134.959 E35.51157
G1 X160.449 Y135.869 E35.57248
G1 X159.989 Y136.75 E35.63248
G1 X159.548 Y137.538 E35.68699
G1 X159.012 Y138.408 E35.74868
G1 X158.632 Y138.989 E35.79059
G1 X158.079 Y139.777 E35.8487
G1 X157.471 Y140.591 E35.91003
G1 X156.743 Y141.475 E35.97916
G1 X156.011 Y142.299 E36.0457
G1 X156.495 Y142.128 E36.07669
G1 X157.024 Y142.064 E36.10885
G1 X157.795 Y142.165 E36.1558
G1 X158.475 Y142.52 E36.2021
G1 X158.895 Y142.902 E36.23637
G1 X159.129 Y143.217 E36.26006
G1 X159.369 Y143.705 E36.29289
G1 X159.473 Y144.044 E36.3143
G1 X159.534 Y144.581 E36.34692
G1 X159.517 Y145.864 E36.42438
G1 X159.496 Y146.457 E36.4602
G1 X159.464 Y147.057 E36.49647
G1 X159.373 Y148.232 E36.56762
G1 X159.313 Y148.802 E36.60222
G1 X159.199 Y149.704 E36.6571
G1 X159.111 Y150.296 E36.69323
G1 X158.961 Y151.164 E36.74641
G1 X158.726 Y152.33 E36.81821
G1 X158.596 Y152.901 E36.85356
G1 X152.003 Y180.441 E38.56305
G1 X151.853 Y180.701 E38.58117
G1 X151.553 Y180.978 E38.60582
G1 X151.223 Y181.115 E38.62739
G1 X150.956 Y181.146 E38.64361
G1 X150.426 Y181.002 E38.67677
G1 X148.72 Y182.195 E38.80244
G1 X148.251 Y182.338 E38.83204
G1 X147.962 Y182.323 E38.84951
G1 X147.377 Y182.159 E38.88618
G1 X146.89 Y182.028 E38.91663
G1 X146.593 Y181.838 E38.93791
G1 X146.385 Y181.602 E38.9569
G1 X145.749 Y180.236 E39.04786
G1 X145.12 Y181.586 E39.13777
G1 X144.935 Y181.798 E39.15476
G1 X144.573 Y182.024 E39.18052
G1 X143.599 Y182.311 E39.24181
G1 X143.115 Y182.319 E39.27104
G1 X142.809 Y182.217 E39.29051
G1 X141.578 Y181.354 E39.38126
G1 X141.708 Y182.836 E39.47107
G1 X141.654 Y183.112 E39.48805
G1 X141.501 Y183.447 E39.51028
G1 X140.716 Y184.265 E39.57872
G1 X140.426 Y184.441 E39.5992
G1 X140.017 Y184.537 E39.62456
G1 X138.53 Y184.411 E39.71465
G1 X139.315 Y185.534 E39.79736
G1 X139.461 Y185.829 E39.81723
G1 X139.513 Y186.134 E39.83591
G1 X139.504 Y186.351 E39.84902
G1 X139.326 Y186.972 E39.88802
G1 X139.216 Y187.402 E39.91481
G1 X139.027 Y187.716 E39.93693
G1 X138.772 Y187.944 E39.95758
G1 X137.408 Y188.578 E40.04838
G1 X138.768 Y189.213 E40.13899
G1 X138.956 Y189.368 E40.1537
G1 X139.22 Y189.771 E40.18278
G1 X139.485 Y190.743 E40.2436
G1 X139.513 Y190.994 E40.25885
G1 X139.46 Y191.329 E40.27932
G1 X139.315 Y191.622 E40.29906
G1 X138.525 Y192.75 E40.38219
G1 X140.017 Y192.62 E40.4726
G1 X140.405 Y192.718 E40.49676
G1 X140.66 Y192.866 E40.51456
G1 X141.408 Y193.585 E40.57719
G1 X141.615 Y193.906 E40.60025
G1 X141.678 Y194.103 E40.61273
G1 X141.699 Y194.434 E40.63275
G1 X141.58 Y195.802 E40.71565
G1 X142.705 Y195.014 E40.79856
G1 X143.001 Y194.867 E40.81851
G1 X143.262 Y194.818 E40.83455
G1 X143.51 Y194.822 E40.84952
G1 X144.536 Y195.1 E40.91369
G1 X144.77 Y195.215 E40.92943
G0 F3600 X144.661 Y195.694
G1 F1500 X144.771 Y195.86 E40.94145
G1 X145.73 Y197.917 E41.07846
G1 X145.768 Y197.917 E41.08075
G1 X146.729 Y195.86 E41.21781
G1 X146.944 Y195.601 E41.23813
G1 X147.13 Y195.508 E41.25068
G1 X148.061 Y195.26 E41.30884
G1 X148.366 Y195.287 E41.32733
G1 X148.543 Y195.375 E41.33926
G1 X150.399 Y196.675 E41.47605
G1 X150.434 Y196.654 E41.47852
G1 X150.241 Y194.409 E41.61454
G1 X150.26 Y194.194 E41.62757
G1 X150.41 Y193.916 E41.64664
G1 X151.033 Y193.268 E41.7009
G1 X151.267 Y193.112 E41.71788
G1 X151.486 Y193.062 E41.73144
G1 X153.825 Y193.263 E41.87316
G1 X153.844 Y193.231 E41.87541
G1 X152.502 Y191.307 E42.01702
