;FLAVOR:Marlin
;TIME:852
;Filament used: 0.48487m
;Layer height: 0.2
;MINX:127.09
;MINY:127.34
;MINZ:0.3
;MAXX:172.91
;MAXY:172.66
;MAXZ:3.7
;Generated with Cura_SteamEngine 5.2.1
M140 S70
M105
M190 S70
M104 S230
M105
M109 S230
M82 ;absolute extrusion mode
G92 E0 ; Reset Extruder
G28 ; Home all axes
G1 Z2.0 F3000 ; Move Z Axis up little to prevent scratching of Heat Bed
G1 X0.1 Y20 Z0.3 F5000.0 ; Move to start position
G1 X0.1 Y270.0 Z0.3 F1500.0 E15 ; Draw the first line
G1 X0.4 Y270.0 Z0.3 F5000.0 ; Move to side a little
G1 X0.4 Y20 Z0.3 F1500.0 E30 ; Draw the second line
G92 E0 ; Reset Extruder
G1 Z2.0 F3000 ; Move Z Axis up little to prevent scratching of Heat Bed
G1 X5 Y20 Z0.3 F5000.0 ; Move over to

G92 E0
G92 E0
G1 F4200 E-6
;LAYER_COUNT:17
;LAYER:0
M107
G1 F600 Z0.5
G0 F3600 X141.94 Y128.671 Z0.5
;TYPE:SKIRT
G1 F600 Z0.3
G1 F4200 E0
G1 F1500 X142.315 Y128.282 E0.03262
G1 X142.743 Y127.952 E0.06524
G1 X143.216 Y127.689 E0.09791
G1 X143.722 Y127.498 E0.13056
G1 X144.25 Y127.384 E0.16317
G1 X144.761 Y127.341 E0.19413
G1 X154.595 Y127.34 E0.78778
G1 X155.297 Y127.35 E0.83016
G1 X155.836 Y127.398 E0.86283
G1 X156.362 Y127.524 E0.89548
G1 X156.863 Y127.727 E0.92811
G1 X157.329 Y128.001 E0.96074
G1 X157.838 Y128.412 E1.00024
G1 X158.467 Y129.146 E1.05859
G1 X159.378 Y130.243 E1.14467
G1 X161.192 Y132.304 E1.31042
G1 X163.047 Y134.297 E1.47478
G1 X164.957 Y136.233 E1.63895
G1 X166.939 Y138.134 E1.80474
G1 X168.934 Y139.941 E1.96723
G1 X171.08 Y141.776 E2.13768
G1 X171.58 Y142.192 E2.17694
G1 X171.969 Y142.568 E2.2096
G1 X172.299 Y142.996 E2.24223
G1 X172.562 Y143.469 E2.2749
G1 X172.752 Y143.975 E2.30753
G1 X172.865 Y144.504 E2.34018
G1 X172.91 Y145.034 E2.37229
G1 X172.91 Y154.325 E2.93316
G1 X172.9 Y155.046 E2.97669
G1 X172.852 Y155.584 E3.0093
G1 X172.726 Y156.11 E3.04195
G1 X172.524 Y156.612 E3.07461
G1 X172.25 Y157.078 E3.10725
G1 X171.834 Y157.593 E3.14721
G1 X171.101 Y158.22 E3.20544
G1 X169.991 Y159.143 E3.29259
G1 X167.946 Y160.942 E3.45701
G1 X165.952 Y162.798 E3.62146
G1 X164.017 Y164.707 E3.78555
G1 X162.115 Y166.69 E3.95142
G1 X160.309 Y168.684 E4.11382
G1 X158.48 Y170.823 E4.28372
G1 X158.06 Y171.329 E4.32341
G1 X157.685 Y171.718 E4.35603
G1 X157.257 Y172.048 E4.38866
G1 X156.784 Y172.311 E4.42133
G1 X156.278 Y172.502 E4.45398
G1 X155.75 Y172.616 E4.48658
G1 X155.239 Y172.659 E4.51754
G1 X145.405 Y172.66 E5.11119
G1 X144.703 Y172.65 E5.15357
G1 X144.164 Y172.602 E5.18624
G1 X143.638 Y172.476 E5.21889
G1 X143.137 Y172.273 E5.25152
G1 X142.671 Y171.999 E5.28416
G1 X142.157 Y171.584 E5.32404
G1 X141.517 Y170.835 E5.38351
G1 X140.622 Y169.757 E5.46809
G1 X138.808 Y167.696 E5.63384
G1 X136.952 Y165.702 E5.79828
G1 X135.043 Y163.767 E5.96237
G1 X133.06 Y161.865 E6.12824
G1 X131.066 Y160.059 E6.29065
G1 X128.924 Y158.228 E6.46076
G1 X128.418 Y157.807 E6.50049
G1 X128.029 Y157.431 E6.53315
G1 X127.7 Y157.002 E6.56579
G1 X127.437 Y156.529 E6.59846
G1 X127.247 Y156.023 E6.63109
G1 X127.134 Y155.494 E6.66374
G1 X127.091 Y154.99 E6.69428
G1 X127.09 Y145.655 E7.25781
G1 X127.1 Y144.953 E7.30019
G1 X127.148 Y144.414 E7.33286
G1 X127.274 Y143.888 E7.36551
G1 X127.477 Y143.387 E7.39814
G1 X127.751 Y142.921 E7.43077
G1 X128.166 Y142.407 E7.47065
G1 X128.899 Y141.78 E7.52888
G1 X130.009 Y140.857 E7.61603
G1 X132.054 Y139.058 E7.78045
G1 X134.048 Y137.202 E7.9449
G1 X135.983 Y135.293 E8.10898
G1 X137.885 Y133.31 E8.27486
G1 X139.691 Y131.316 E8.43726
G1 X141.546 Y129.146 E8.6096
G1 X141.94 Y128.671 E8.64685
G0 F3600 X142.278 Y128.952
G1 F1500 X142.632 Y128.589 E8.67746
G1 X143.038 Y128.285 E8.70808
G1 X143.487 Y128.05 E8.73867
G1 X143.968 Y127.887 E8.76933
G1 X144.732 Y127.781 E8.81589
G1 X154.589 Y127.78 E9.41093
G1 X155.291 Y127.79 E9.45331
G1 X155.796 Y127.837 E9.48393
G1 X156.287 Y127.963 E9.51453
G1 X156.753 Y128.165 E9.54519
G1 X157.181 Y128.437 E9.57581
G1 X157.69 Y128.915 E9.61796
G1 X158.128 Y129.427 E9.65863
G1 X159.053 Y130.54 E9.746
G1 X160.85 Y132.583 E9.91025
G1 X162.723 Y134.595 E10.07619
G1 X164.65 Y136.549 E10.24186
G1 X166.632 Y138.449 E10.4076
G1 X168.645 Y140.273 E10.57158
G1 X170.794 Y142.11 E10.74225
G1 X171.299 Y142.53 E10.7819
G1 X171.662 Y142.884 E10.81251
G1 X171.965 Y143.291 E10.84314
G1 X172.201 Y143.74 E10.87376
G1 X172.363 Y144.221 E10.9044
G1 X172.47 Y144.994 E10.95151
G1 X172.47 Y154.319 E11.51443
G1 X172.46 Y155.04 E11.55796
G1 X172.413 Y155.545 E11.58858
G1 X172.287 Y156.036 E11.61918
G1 X172.086 Y156.501 E11.64976
G1 X171.814 Y156.93 E11.68043
G1 X171.334 Y157.441 E11.72275
G1 X170.819 Y157.881 E11.76364
G1 X169.71 Y158.803 E11.8507
G1 X167.667 Y160.6 E12.01495
G1 X165.655 Y162.474 E12.18093
G1 X163.701 Y164.4 E12.34656
G1 X161.8 Y166.383 E12.51239
G1 X159.977 Y168.395 E12.67629
G1 X158.142 Y170.542 E12.84678
G1 X157.722 Y171.048 E12.88648
G1 X157.368 Y171.411 E12.91709
G1 X156.962 Y171.715 E12.94771
G1 X156.513 Y171.95 E12.9783
G1 X156.032 Y172.113 E13.00896
G1 X155.268 Y172.219 E13.05552
G1 X145.411 Y172.22 E13.65056
G1 X144.709 Y172.21 E13.69294
G1 X144.204 Y172.163 E13.72356
G1 X143.713 Y172.037 E13.75416
G1 X143.247 Y171.835 E13.78482
G1 X142.819 Y171.563 E13.81543
G1 X142.309 Y171.084 E13.85767
G1 X141.855 Y170.554 E13.8998
G1 X140.929 Y169.44 E13.98725
G1 X139.15 Y167.417 E14.14987
G1 X137.276 Y165.405 E14.31586
G1 X135.35 Y163.451 E14.48148
G1 X133.367 Y161.55 E14.64731
G1 X131.355 Y159.727 E14.81121
G1 X129.173 Y157.862 E14.98449
G1 X128.7 Y157.468 E15.02165
G1 X128.336 Y157.114 E15.05231
G1 X128.033 Y156.708 E15.08289
G1 X127.798 Y156.258 E15.11353
G1 X127.636 Y155.778 E15.14412
G1 X127.531 Y155.018 E15.19043
G1 X127.53 Y145.661 E15.75529
G1 X127.54 Y144.959 E15.79767
G1 X127.587 Y144.454 E15.82829
G1 X127.713 Y143.963 E15.85889
G1 X127.915 Y143.497 E15.88955
G1 X128.187 Y143.069 E15.92016
G1 X128.666 Y142.559 E15.9624
G1 X129.181 Y142.119 E16.00329
G1 X130.29 Y141.197 E16.09035
G1 X132.333 Y139.4 E16.2546
G1 X134.345 Y137.526 E16.42058
G1 X136.299 Y135.6 E16.58621
G1 X138.2 Y133.617 E16.75204
G1 X140.023 Y131.605 E16.91594
G1 X141.858 Y129.458 E17.08643
G1 X142.278 Y128.952 E17.12613
G1 F4200 E11.12613
G1 F600 Z0.5
;MESH:profile_fixation_1.STL
G0 F3600 X149.534 Y139.202 Z0.5
;TYPE:WALL-INNER
G1 F600 Z0.3
G1 F4200 E17.12613
G1 F1182.8 X149.335 Y139.108 E17.14298
G1 F1401.3 X148.694 Y138.86 E17.18739
G1 F1500 X148.21 Y138.585 E17.221
G1 X147.975 Y138.406 E17.23883
G1 X147.588 Y138.017 E17.27196
G1 X147.181 Y137.433 E17.31493
G1 X146.909 Y136.638 E17.36565
G1 X146.852 Y136.097 E17.39849
G1 X146.897 Y135.488 E17.43535
G1 X147.066 Y134.827 E17.47654
G1 X147.4 Y134.23 E17.51784
G1 X147.578 Y133.994 E17.53568
G1 X147.975 Y133.594 E17.5697
G1 F1425.5 X148.578 Y133.186 E17.61595
G1 F1294.1 X149.318 Y132.883 E17.6719
G1 F1145.8 X149.462 Y132.804 E17.68488
G1 F1085.5 X150.056 Y132.775 E17.73449
G1 F1089.1 X150.505 Y132.802 E17.77189
G1 F1182.8 X150.706 Y132.903 E17.78911
G1 F1401.3 X151.374 Y133.169 E17.83557
G1 F1500 X151.951 Y133.532 E17.87672
G1 X152.351 Y133.908 E17.90986
G1 X152.688 Y134.361 E17.94395
G1 X152.952 Y134.907 E17.98056
G1 X153.109 Y135.444 E18.01433
G1 X153.15 Y136.065 E18.0519
G1 X153.132 Y136.258 E18.0636
G1 X153.003 Y136.986 E18.10823
G1 X152.692 Y137.628 E18.1513
G1 X152.274 Y138.191 E18.19363
G1 X151.677 Y138.659 E18.23942
G1 X151.441 Y138.8 E18.25602
G1 X150.931 Y139.008 E18.28927
G1 F1247.6 X150.54 Y139.196 E18.32075
G1 F1087.3 X150.048 Y139.226 E18.3618
G1 F1092.7 X149.534 Y139.202 E18.40444
G0 F3600 X149.506 Y139.814
G1 F1092.7 X149.964 Y139.823 E18.4424
G1 F1087.3 X150.593 Y139.811 E18.4948
G1 F1247.6 X151.043 Y139.899 E18.52807
G1 F1500 X154.15 Y139.9 E18.71564
G1 X154.15 Y133.157 E19.12269
G1 X154.15 Y132.1 E19.1865
G1 X151.306 Y132.1 E19.35818
G1 F1252.4 X150.54 Y132.188 E19.41393
G1 F1089.1 X150.041 Y132.178 E19.45543
G1 F1085.5 X149.409 Y132.189 E19.50816
G1 F1145.8 X149.203 Y132.147 E19.52477
G1 F1355.2 X148.603 Y132.1 E19.56498
G1 F1500 X145.851 Y132.101 E19.73111
G1 X145.851 Y139.899 E20.20186
G1 X148.804 Y139.899 E20.38012
G1 F1254.8 X149.506 Y139.814 E20.43115
G0 F3600 X150.029 Y138.968
G0 X150.011 Y138.709
G1 F1500 X149.584 Y138.678 E20.45699
G1 X148.985 Y138.519 E20.49441
G1 X148.348 Y138.157 E20.53864
G1 X147.899 Y137.707 E20.57701
G1 X147.578 Y137.232 E20.61162
G1 X147.339 Y136.533 E20.65621
G1 X147.292 Y136.097 E20.68269
G1 X147.336 Y135.523 E20.71744
G1 X147.48 Y134.988 E20.75089
G1 X147.828 Y134.368 E20.79381
G1 X148.287 Y133.904 E20.83321
G1 X148.81 Y133.556 E20.87113
G1 X149.553 Y133.325 E20.9181
G1 X150.083 Y133.293 E20.95015
G1 X150.444 Y133.325 E20.97203
G1 X151.026 Y133.495 E21.00863
G1 X151.588 Y133.796 E21.04712
G1 X152.041 Y134.221 E21.08461
G1 X152.327 Y134.612 E21.11386
G1 X152.55 Y135.086 E21.14548
G1 X152.657 Y135.463 E21.16914
G1 X152.71 Y136.065 E21.20562
G1 X152.699 Y136.181 E21.21265
G1 X152.581 Y136.848 E21.25354
G1 X152.336 Y137.369 E21.2883
G1 X151.964 Y137.875 E21.32621
G1 X151.333 Y138.368 E21.37455
G1 X150.823 Y138.581 E21.40792
G1 X150.449 Y138.675 E21.43119
G1 X150.011 Y138.709 E21.45771
G0 F3600 X150.029 Y138.968
G0 X145.64 Y140.11
G0 X145.411 Y140.339
G1 F1500 X154.59 Y140.34 E22.01182
G1 X154.59 Y133.157 E22.44544
G1 X154.59 Y131.66 E22.53581
G1 X145.411 Y131.661 E23.08992
G1 X145.411 Y140.339 E23.61379
G0 F3600 X144.971 Y140.779
;TYPE:WALL-OUTER
G1 F1500 X155.03 Y140.78 E24.22102
G1 X155.03 Y133.157 E24.6812
G1 X155.03 Y131.22 E24.79813
G1 X144.971 Y131.221 E25.40536
G1 X144.971 Y140.779 E25.98235
G0 F3600 X145.171 Y140.779
G0 X145.64 Y140.11
G0 X149.559 Y138.934
G0 X149.626 Y138.24
G1 F1500 X149.129 Y138.095 E26.01361
G1 X148.619 Y137.805 E26.04902
G1 X148.18 Y137.358 E26.08684
G1 X147.965 Y137.006 E26.11174
G1 X147.777 Y136.456 E26.14683
G1 X147.732 Y136.079 E26.16975
G1 X147.774 Y135.559 E26.20124
G1 X147.885 Y135.176 E26.22532
G1 X148.182 Y134.635 E26.26257
G1 X148.599 Y134.214 E26.29834
G1 X149.002 Y133.957 E26.3272
G1 X149.629 Y133.759 E26.36689
G1 X150.117 Y133.733 E26.39639
G1 X150.434 Y133.771 E26.41567
G1 X150.895 Y133.915 E26.44482
G1 X151.329 Y134.156 E26.47479
G1 X151.732 Y134.534 E26.50814
G1 X151.986 Y134.899 E26.53499
G1 X152.148 Y135.264 E26.55909
G1 X152.238 Y135.614 E26.58091
G1 X152.27 Y136.065 E26.6082
G1 X152.163 Y136.685 E26.64619
G1 X152.004 Y137.069 E26.67127
G1 X151.658 Y137.552 E26.70714
G1 X151.134 Y137.966 E26.74746
G1 X150.714 Y138.155 E26.77526
G1 X150.373 Y138.241 E26.79649
G1 X149.943 Y138.27 E26.8225
G1 X149.626 Y138.24 E26.84173
G0 F3600 X149.434 Y138.184
G0 X149.242 Y138.86
G0 X152.612 Y138.453
;TYPE:SKIN
G1 F1500 X151.938 Y138.986 E26.8936
G1 X151.605 Y139.186 E26.91705
G1 X151.088 Y139.393 E26.95067
G1 X151.011 Y139.454 E26.9566
G1 X151.079 Y139.481 E26.96101
G1 X153.732 Y139.482 E27.12117
G1 X153.732 Y137.772 E27.2244
G1 F1650 X153.772 Y136.869 E27.274
G1 F1314.7 X153.63 Y136.43 E27.30578
G1 X153.415 Y136.837 E27.33748
G1 F1793.5 X153.4 Y136.94 E27.34274
G1 F1617.6 X153.158 Y137.696 E27.38717
G1 F1500 X152.612 Y138.453 E27.44351
G0 F3600 X153.63 Y136.43
G1 F1062.8 X153.653 Y136.143 E27.46804
G1 F1061.1 X153.629 Y135.472 E27.52534
G0 F3600 X152.75 Y133.706
G1 F1500 X153.175 Y134.377 E27.57329
G1 X153.42 Y134.982 E27.61269
G1 F1215.5 X153.629 Y135.472 E27.65238
G1 X153.732 Y134.949 E27.69209
G1 F1500 X153.732 Y133.156 E27.80033
G1 X153.732 Y132.518 E27.83884
G1 X151.316 Y132.519 E27.98469
G1 X151.028 Y132.557 E28.00223
G1 X151.561 Y132.794 E28.03744
G1 X152.205 Y133.204 E28.08353
G1 X152.75 Y133.706 E28.12826
G0 F3600 X153.273 Y132.738
G1 F1500 X153.511 Y132.977 E28.14862
G0 F3600 X153.511 Y133.599
G1 F1500 X152.651 Y132.739 E28.22204
G0 F3600 X152.282 Y132.992
G1 F1500 X152.029 Y132.739 E28.24364
G0 F3600 X153.034 Y133.744
G1 F1500 X153.511 Y134.221 E28.28436
G0 F3600 X153.355 Y137.798
G1 F1500 X153.511 Y137.955 E28.29772
G0 F3600 X153.094 Y138.16
G1 F1500 X153.511 Y138.577 E28.33332
G0 F3600 X153.511 Y139.199
G1 F1500 X152.832 Y138.52 E28.39129
G0 F3600 X152.509 Y138.819
G1 F1500 X152.95 Y139.261 E28.42898
G0 F3600 X152.328 Y139.261
G1 F1500 X152.159 Y139.092 E28.44341
G0 F3600 X147.691 Y138.715
G1 F1500 X147.266 Y138.282 E28.48003
G1 X146.822 Y137.649 E28.52671
G1 F1330.6 X146.603 Y137.184 E28.56169
G1 F1083.7 X146.383 Y136.719 E28.60467
G1 F1021.7 X146.362 Y136.795 E28.61166
G1 F1238.3 X146.269 Y137.681 E28.6768
G1 F1500 X146.27 Y139.48 E28.7854
G1 X148.791 Y139.48 E28.93759
G1 X149.001 Y139.449 E28.9504
G1 X148.483 Y139.223 E28.98452
G1 X148.001 Y138.948 E29.01802
G1 X147.691 Y138.715 E29.04143
G0 F3600 X146.383 Y136.719
G1 F1037.7 X146.351 Y136.101 E29.09543
G1 F1041 X146.381 Y135.283 E29.16663
G0 F3600 X147.034 Y134.028
G1 F1500 X147.281 Y133.702 E29.19132
G1 X147.68 Y133.299 E29.22555
G1 X148.286 Y132.875 E29.2702
G1 X148.91 Y132.57 E29.31213
G1 X148.585 Y132.519 E29.33199
G1 X146.269 Y132.519 E29.4718
G1 X146.269 Y134.448 E29.58825
G1 F1250 X146.357 Y135.192 E29.64252
G1 F1032.9 X146.381 Y135.283 E29.65077
G1 F1197.8 X146.77 Y134.498 E29.717
G1 F1500 X147.034 Y134.028 E29.74954
G0 F3600 X147.846 Y132.912
G1 F1500 X147.672 Y132.738 E29.76439
G0 F3600 X147.489 Y133.177
G1 F1500 X147.051 Y132.739 E29.80179
G0 F3600 X146.487 Y132.798
G1 F1500 X147.18 Y133.491 E29.86095
G0 F3600 X146.902 Y133.834
G1 F1500 X146.487 Y133.42 E29.89634
G0 F3600 X146.487 Y134.042
G1 F1500 X146.671 Y134.226 E29.91205
G0 F3600 X146.488 Y137.776
G1 F1500 X147.003 Y138.291 E29.95601
G0 F3600 X146.488 Y138.399
G1 F1500 X147.349 Y139.259 E30.02947
G0 F3600 X147.693 Y138.981
G1 F1500 X147.971 Y139.259 E30.05321
G0 F3600 X146.726 Y139.259
G1 F1500 X146.488 Y139.021 E30.07353
G1 F4200 E24.07353
G1 F600 Z0.5
;MESH:actionneur_panneau_fixation_servomotor_hat_1.STL
G0 F3600 X146.488 Y139.021 Z0.5
G0 X145.369 Y150.811
;TYPE:WALL-INNER
G1 F600 Z0.3
G1 F4200 E30.07353
G1 F1500 X145.305 Y150.235 E30.10851
G1 X145.314 Y149.634 E30.1448
G1 X145.422 Y148.917 E30.18857
G1 X145.573 Y148.416 E30.22016
G1 X145.914 Y147.666 E30.26989
G1 X146.354 Y147.026 E30.31678
G1 X147.019 Y146.366 E30.37334
G1 X147.567 Y145.971 E30.41411
G1 X148.425 Y145.567 E30.47136
G1 X149.189 Y145.369 E30.51901
G1 X149.767 Y145.305 E30.55411
G1 X150.3 Y145.31 E30.58629
G1 X150.863 Y145.388 E30.6206
G1 X150.905 Y145.015 E30.64326
G1 X151.014 Y144.681 E30.66447
G1 X151.266 Y144.236 E30.69534
G1 X151.663 Y143.827 E30.72975
G1 X151.489 Y143.778 E30.74066
G1 X150.894 Y143.656 E30.77733
G1 X150.286 Y143.607 E30.81415
G1 X149.666 Y143.611 E30.85158
G1 X149.054 Y143.673 E30.88871
G1 X148.515 Y143.777 E30.92185
G1 X147.607 Y144.051 E30.97911
G1 X146.801 Y144.452 E31.03345
G1 X146.164 Y144.866 E31.07931
G1 X145.523 Y145.414 E31.13022
G1 X145.028 Y145.972 E31.17525
G1 X144.661 Y146.473 E31.21274
G1 X144.353 Y146.978 E31.24845
G1 X143.969 Y147.829 E31.30481
G1 X143.769 Y148.555 E31.35027
G1 X143.608 Y149.485 E31.40725
G1 X143.611 Y150.336 E31.45862
G1 X143.667 Y150.907 E31.49325
G1 X143.777 Y151.486 E31.52883
G1 X144.048 Y152.388 E31.58569
G1 X144.452 Y153.199 E31.64038
G1 X144.937 Y153.944 E31.69405
G1 X144.964 Y153.821 E31.70165
G1 X145.24 Y153.259 E31.73945
G1 X145.435 Y153.033 E31.75746
G1 X145.835 Y152.692 E31.7892
G1 X146.046 Y152.579 E31.80364
G1 X145.569 Y151.586 E31.87015
G1 X145.369 Y150.811 E31.91846
G0 F3600 X145.503 Y154.724
G0 X146.191 Y155.781
G0 X147.241 Y155.995
G0 X150.811 Y154.632
G1 F1500 X150.233 Y154.695 E31.95356
G1 X149.628 Y154.689 E31.99009
G1 X149.14 Y154.612 E32.01991
G1 X149.048 Y155.164 E32.05369
G1 X148.832 Y155.619 E32.0841
G1 X148.666 Y155.853 E32.10142
G1 X148.34 Y156.171 E32.12891
G1 X148.573 Y156.235 E32.14349
G1 X149.493 Y156.394 E32.19986
G1 X150.334 Y156.39 E32.25063
