;FLAVOR:Marlin
;TIME:3388
;Filament used: 2.3639m
;Layer height: 0.2
;MINX:135.84
;MINY:114.34
;MINZ:0.3
;MAXX:164.16
;MAXY:185.66
;MAXZ:21.3
;Generated with Cura_SteamEngine 5.2.1
M140 S60
M105
M190 S60
M104 S230
M105
M109 S230
M82 ;absolute extrusion mode
G92 E0 ; Reset Extruder
G28 ; Home all axes
G1 Z2.0 F3000 ; Move Z Axis up little to prevent scratching of Heat Bed
G1 X0.1 Y20 Z0.3 F5000.0 ; Move to start position
G1 X0.1 Y270.0 Z0.3 F1500.0 E15 ; Draw the first line
G1 X0.4 Y270.0 Z0.3 F5000.0 ; Move to side a little
G1 X0.4 Y20 Z0.3 F1500.0 E30 ; Draw the second line
G92 E0 ; Reset Extruder
G1 Z2.0 F3000 ; Move Z Axis up little to prevent scratching of Heat Bed
G1 X5 Y20 Z0.3 F5000.0 ; Move over to

G92 E0
G92 E0
G1 F4200 E-6
;LAYER_COUNT:105
;LAYER:0
M107
G1 F600 Z0.5
G0 F3600 X136.838 Y115.506 Z0.5
;TYPE:SKIRT
G1 F600 Z0.3
G1 F4200 E0
G1 F1350 X137.236 Y115.14 E0.03264
G1 X137.684 Y114.837 E0.06529
G1 X138.171 Y114.602 E0.09793
G1 X138.688 Y114.442 E0.1306
G1 X139.476 Y114.341 E0.17856
G1 X159.845 Y114.34 E1.40818
G1 X160.543 Y114.35 E1.45032
G1 X161.082 Y114.398 E1.48299
G1 X161.608 Y114.525 E1.51565
G1 X162.109 Y114.727 E1.54826
G1 X162.575 Y115.001 E1.5809
G1 X162.996 Y115.341 E1.61356
G1 X163.362 Y115.739 E1.6462
G1 X163.665 Y116.187 E1.67885
G1 X163.899 Y116.675 E1.71152
G1 X164.058 Y117.191 E1.74412
G1 X164.159 Y117.977 E1.79196
G1 X164.16 Y137.495 E2.9702
G1 X164.153 Y139.447 E3.08804
G1 X164.16 Y140.331 E3.14141
G1 X164.16 Y159.495 E4.29828
G1 X164.153 Y161.447 E4.41612
G1 X164.16 Y162.331 E4.46949
G1 X164.16 Y181.309 E5.61513
G1 X164.151 Y182.036 E5.65902
G1 X164.104 Y182.575 E5.69169
G1 X163.979 Y183.101 E5.72432
G1 X163.777 Y183.603 E5.75699
G1 X163.504 Y184.069 E5.78959
G1 X163.165 Y184.491 E5.82227
G1 X162.767 Y184.857 E5.85491
G1 X162.32 Y185.161 E5.88754
G1 X161.833 Y185.396 E5.92019
G1 X161.317 Y185.557 E5.95282
G1 X160.524 Y185.659 E6.00108
G1 X140.16 Y185.66 E7.2304
G1 X139.462 Y185.651 E7.27254
G1 X138.923 Y185.604 E7.3052
G1 X138.397 Y185.478 E7.33785
G1 X137.896 Y185.276 E7.37046
G1 X137.429 Y185.003 E7.40312
G1 X137.008 Y184.663 E7.43578
G1 X136.642 Y184.266 E7.46838
G1 X136.338 Y183.818 E7.50106
G1 X136.103 Y183.331 E7.5337
G1 X135.943 Y182.815 E7.56632
G1 X135.841 Y182.02 E7.6147
G1 X135.84 Y162.505 E8.79277
G1 X135.847 Y160.553 E8.9106
G1 X135.84 Y159.669 E8.96397
G1 X135.84 Y140.505 E10.12085
G1 X135.847 Y138.553 E10.23868
G1 X135.84 Y137.669 E10.29205
G1 X135.84 Y118.624 E11.44174
G1 X135.849 Y117.959 E11.48189
G1 X135.897 Y117.421 E11.5145
G1 X136.023 Y116.895 E11.54715
G1 X136.225 Y116.393 E11.57981
G1 X136.499 Y115.927 E11.61245
G1 X136.838 Y115.506 E11.64508
G0 F3600 X137.27 Y115.695
G1 F1350 X137.661 Y115.372 E11.67569
G1 X138.098 Y115.115 E11.7063
G1 X138.57 Y114.929 E11.73692
G1 X139.065 Y114.82 E11.76752
G1 X139.525 Y114.781 E11.79539
G1 X159.839 Y114.78 E13.02169
G1 X160.537 Y114.79 E13.06383
G1 X161.042 Y114.838 E13.09445
G1 X161.533 Y114.963 E13.12504
G1 X161.999 Y115.165 E13.1557
G1 X162.427 Y115.437 E13.18631
G1 X162.807 Y115.773 E13.21693
G1 X163.129 Y116.164 E13.24751
G1 X163.386 Y116.601 E13.27811
G1 X163.572 Y117.073 E13.30874
G1 X163.681 Y117.569 E13.3394
G1 X163.719 Y118.027 E13.36714
G1 X163.72 Y137.494 E14.54231
G1 X163.713 Y139.446 E14.66014
G1 X163.72 Y140.335 E14.71381
G1 X163.72 Y159.494 E15.87039
G1 X163.713 Y161.446 E15.98822
G1 X163.72 Y162.335 E16.04189
G1 X163.72 Y181.304 E17.187
G1 X163.711 Y182.031 E17.23089
G1 X163.665 Y182.536 E17.2615
G1 X163.54 Y183.027 E17.29208
G1 X163.339 Y183.493 E17.32272
G1 X163.068 Y183.922 E17.35335
G1 X162.733 Y184.302 E17.38393
G1 X162.342 Y184.626 E17.41459
G1 X161.905 Y184.884 E17.44522
G1 X161.434 Y185.07 E17.47579
G1 X160.939 Y185.18 E17.5064
G1 X160.474 Y185.219 E17.53457
G1 X140.165 Y185.22 E18.76057
G1 X139.467 Y185.211 E18.80271
G1 X138.962 Y185.164 E18.83332
G1 X138.471 Y185.039 E18.86391
G1 X138.005 Y184.838 E18.89455
G1 X137.577 Y184.567 E18.92513
G1 X137.196 Y184.232 E18.95575
G1 X136.873 Y183.841 E18.98637
G1 X136.616 Y183.404 E19.01697
G1 X136.43 Y182.932 E19.0476
G1 X136.32 Y182.437 E19.07821
G1 X136.281 Y181.97 E19.1065
G1 X136.28 Y162.506 E20.28149
G1 X136.287 Y160.554 E20.39932
G1 X136.28 Y159.665 E20.45299
G1 X136.28 Y140.506 E21.60957
G1 X136.287 Y138.554 E21.7274
G1 X136.28 Y137.665 E21.78107
G1 X136.28 Y118.63 E22.93016
G1 X136.289 Y117.965 E22.97031
G1 X136.336 Y117.46 E23.00092
G1 X136.462 Y116.969 E23.03153
G1 X136.663 Y116.503 E23.06216
G1 X136.934 Y116.075 E23.09274
G1 X137.27 Y115.695 E23.12336
G1 F4200 E17.12336
G1 F600 Z0.5
;MESH:??querre_1.STL(2)
G0 F3600 X149.629 Y131.159 Z0.5
;TYPE:WALL-INNER
G1 F600 Z0.3
G1 F4200 E23.12336
G1 F1350 X148.874 Y131.079 E23.1692
G1 X148.601 Y131.015 E23.18612
G1 X147.996 Y130.767 E23.22559
G1 X147.614 Y130.519 E23.25309
G1 X147.251 Y130.207 E23.28198
G1 X146.918 Y129.8 E23.31373
G1 X146.609 Y129.272 E23.35066
G1 X146.397 Y128.568 E23.39504
G1 X146.351 Y127.931 E23.4336
G1 X146.459 Y127.138 E23.48191
G1 X146.741 Y126.487 E23.52474
G1 X147.119 Y125.938 E23.56498
G1 X147.433 Y125.627 E23.59165
G1 X147.958 Y125.258 E23.63039
G1 X148.574 Y124.99 E23.67095
G1 X148.95 Y124.897 E23.69433
G1 X149.535 Y124.85 E23.72976
G1 X149.984 Y124.889 E23.75696
G1 X150.576 Y125.043 E23.79389
G1 X150.826 Y125.151 E23.81033
G1 X151.495 Y125.546 E23.85723
G1 X151.982 Y126.061 E23.90002
G1 X152.327 Y126.587 E23.93799
G1 X152.605 Y127.413 E23.9906
G1 X152.65 Y128.07 E24.03036
G1 X152.633 Y128.261 E24.04193
G1 X152.508 Y128.97 E24.08539
G1 X152.17 Y129.682 E24.13297
G1 X151.773 Y130.175 E24.17118
G1 X151.204 Y130.661 E24.21636
G1 X150.609 Y130.944 E24.25613
G1 X150.33 Y131.033 E24.27381
G1 X149.629 Y131.159 E24.3168
G0 F3600 X140.601 Y136.899
G1 F1350 X159.4 Y136.9 E25.45165
G1 X159.4 Y123.317 E26.27161
G1 X159.4 Y119.1 E26.52618
G1 X140.601 Y119.101 E27.66102
G1 X140.601 Y136.899 E28.73544
G0 F3600 X140.161 Y137.339
G1 F1350 X159.84 Y137.34 E29.9234
G1 X159.84 Y123.317 E30.76993
G1 X159.84 Y118.66 E31.05106
G1 X140.161 Y118.661 E32.23903
G1 X140.161 Y137.339 E33.36656
G0 F3600 X140.39 Y137.11
G0 X148.74 Y130.874
G0 X148.832 Y130.633
G1 F1350 X148.224 Y130.391 E33.40607
G1 X147.899 Y130.184 E33.42933
G1 X147.559 Y129.894 E33.4563
G1 X147.263 Y129.527 E33.48477
G1 X146.993 Y129.023 E33.51928
G1 X146.827 Y128.455 E33.55501
G1 X146.791 Y127.931 E33.58671
G1 X146.875 Y127.336 E33.62299
G1 X147.05 Y126.844 E33.65451
G1 X147.36 Y126.34 E33.69023
G1 X147.629 Y126.041 E33.71451
G1 X148.079 Y125.686 E33.74911
G1 X148.684 Y125.416 E33.7891
G1 X149.026 Y125.33 E33.81039
G1 X149.483 Y125.291 E33.83808
G1 X149.94 Y125.327 E33.86575
G1 X150.525 Y125.485 E33.90233
G1 X151.217 Y125.893 E33.95083
G1 X151.648 Y126.347 E33.98862
G1 X151.928 Y126.782 E34.01985
G1 X152.142 Y127.414 E34.06013
G1 X152.21 Y128.07 E34.09994
G1 X152.199 Y128.185 E34.10691
G1 X152.086 Y128.836 E34.1468
G1 X151.777 Y129.472 E34.18949
G1 X151.434 Y129.895 E34.22236
G1 X150.963 Y130.287 E34.25935
G1 X150.338 Y130.584 E34.30113
G1 X149.631 Y130.712 E34.3445
G1 X148.832 Y130.633 E34.39297
G0 F3600 X149.589 Y130.268
;TYPE:WALL-OUTER
G1 F1350 X148.937 Y130.201 E34.43254
G1 X148.452 Y130.015 E34.46389
G1 X148.183 Y129.848 E34.48301
G1 X147.868 Y129.58 E34.50797
G1 X147.587 Y129.223 E34.5354
G1 X147.432 Y128.938 E34.55498
G1 X147.267 Y128.405 E34.58867
G1 X147.231 Y127.931 E34.61736
G1 X147.322 Y127.358 E34.65239
G1 X147.46 Y127.004 E34.67532
G1 X147.755 Y126.546 E34.70821
G1 X147.945 Y126.347 E34.72482
G1 X148.33 Y126.055 E34.75399
G1 X148.794 Y125.842 E34.78481
G1 X149.084 Y125.767 E34.80289
G1 X149.517 Y125.73 E34.82913
G1 X149.936 Y125.772 E34.85455
G1 X150.354 Y125.895 E34.88085
G1 X150.941 Y126.244 E34.92208
G1 X151.314 Y126.633 E34.95461
G1 X151.537 Y126.999 E34.98048
G1 X151.734 Y127.582 E35.01763
G1 X151.77 Y128.07 E35.04717
G1 X151.66 Y128.701 E35.08584
G1 X151.406 Y129.235 E35.12153
G1 X151.06 Y129.649 E35.1541
G1 X150.739 Y129.901 E35.17874
G1 X150.204 Y130.162 E35.21467
G1 X149.589 Y130.268 E35.25235
G0 F3600 X149.39 Y130.248
G0 X149.317 Y130.944
G0 X140.39 Y137.11
G0 X139.721 Y137.779
G1 F1350 X160.28 Y137.78 E36.49344
G1 X160.28 Y123.317 E37.36653
G1 X160.28 Y118.22 E37.67422
G1 X139.721 Y118.221 E38.91531
G1 X139.721 Y137.779 E40.09597
G0 F3600 X139.921 Y137.779
G0 X140.39 Y137.11
G0 X141.019 Y136.481
;TYPE:SKIN
G1 F1350 X158.982 Y136.482 E41.18034
G1 X158.982 Y123.317 E41.97507
G1 X158.982 Y119.519 E42.20435
G1 X141.019 Y119.519 E43.28872
G1 X141.019 Y136.481 E44.31267
G0 F3600 X149.632 Y131.579
G1 F1350 X148.801 Y131.491 E44.36312
G1 X148.453 Y131.407 E44.38473
G1 X147.769 Y131.119 E44.42953
G1 X147.363 Y130.854 E44.4588
G1 X146.955 Y130.505 E44.49121
G1 X146.59 Y130.061 E44.52591
G1 X146.225 Y129.447 E44.56903
G1 X145.98 Y128.636 E44.62017
G1 X145.934 Y127.904 E44.66445
G1 X146.026 Y127.207 E44.70689
G1 X146.257 Y126.514 E44.75098
G1 X146.399 Y126.242 E44.76951
G1 X146.795 Y125.675 E44.81126
G1 X147.158 Y125.312 E44.84225
G1 X147.785 Y124.876 E44.88835
G1 X148.435 Y124.596 E44.93107
G1 X148.882 Y124.485 E44.95888
G1 X149.554 Y124.432 E44.99957
G1 X150.057 Y124.478 E45.03006
G1 X150.683 Y124.638 E45.06906
G1 X151.039 Y124.79 E45.09243
G1 X151.765 Y125.22 E45.14337
G1 X152.299 Y125.786 E45.19034
G1 X152.703 Y126.399 E45.23466
G1 X152.954 Y127.134 E45.28155
G1 X153.031 Y127.518 E45.30519
G1 X153.074 Y128.143 E45.34301
G1 X152.912 Y129.096 E45.40136
G1 X152.531 Y129.897 E45.45491
G1 X152.073 Y130.464 E45.49891
G1 X151.434 Y131.014 E45.54981
G1 X150.766 Y131.33 E45.59442
G1 X150.436 Y131.438 E45.61538
G1 X149.632 Y131.579 E45.66465
G0 F3600 X141.861 Y136.261
G1 F1350 X141.238 Y135.637 E45.71788
G0 F3600 X141.238 Y135.015
G1 F1350 X142.484 Y136.261 E45.82426
G0 F3600 X143.106 Y136.261
G1 F1350 X141.238 Y134.393 E45.98373
G0 F3600 X141.238 Y133.771
G1 F1350 X143.728 Y136.261 E46.19631
G0 F3600 X144.35 Y136.261
G1 F1350 X141.238 Y133.148 E46.46203
G0 F3600 X141.238 Y132.526
G1 F1350 X144.973 Y136.261 E46.78089
G0 F3600 X145.595 Y136.261
G1 F1350 X141.238 Y131.904 E47.15286
G0 F3600 X141.238 Y131.282
G1 F1350 X146.217 Y136.261 E47.57792
G0 F3600 X146.839 Y136.261
G1 F1350 X141.238 Y130.659 E48.05614
G0 F3600 X141.238 Y130.037
G1 F1350 X147.462 Y136.261 E48.58749
G0 F3600 X148.084 Y136.261
G1 F1350 X141.238 Y129.415 E49.17195
G0 F3600 X141.238 Y128.793
G1 F1350 X148.706 Y136.261 E49.80951
G0 F3600 X149.328 Y136.261
G1 F1350 X141.238 Y128.17 E50.50021
G0 F3600 X141.238 Y127.548
G1 F1350 X149.951 Y136.261 E51.24406
G0 F3600 X150.573 Y136.261
G1 F1350 X141.238 Y126.926 E52.041
G0 F3600 X141.238 Y126.304
G1 F1350 X151.195 Y136.261 E52.89105
G0 F3600 X151.817 Y136.261
G1 F1350 X141.238 Y125.681 E53.79425
G0 F3600 X141.238 Y125.059
G1 F1350 X146.609 Y130.43 E54.25278
G0 F3600 X147.073 Y130.894
G1 F1350 X152.44 Y136.261 E54.71097
G0 F3600 X153.062 Y136.261
G1 F1350 X148.432 Y131.631 E55.10624
G0 F3600 X149.175 Y131.752
G1 F1350 X153.684 Y136.261 E55.49119
G0 F3600 X154.306 Y136.261
G1 F1350 X149.818 Y131.772 E55.87438
G0 F3600 X150.344 Y131.676
G1 F1350 X154.929 Y136.261 E56.26581
G0 F3600 X155.551 Y136.261
G1 F1350 X150.827 Y131.538 E56.66906
G0 F3600 X151.255 Y131.342
G1 F1350 X156.173 Y136.261 E57.08897
G0 F3600 X156.795 Y136.261
G1 F1350 X151.651 Y131.116 E57.52816
G0 F3600 X151.985 Y130.828
G1 F1350 X157.418 Y136.261 E57.99199
G0 F3600 X158.04 Y136.261
G1 F1350 X152.307 Y130.528 E58.48143
G0 F3600 X152.583 Y130.181
G1 F1350 X158.662 Y136.261 E59.00045
G0 F3600 X158.761 Y135.737
G1 F1350 X152.82 Y129.797 E59.5076
G0 F3600 X153.021 Y129.375
G1 F1350 X158.761 Y135.115 E59.99764
G0 F3600 X158.761 Y134.493
G1 F1350 X153.168 Y128.9 E60.47512
G0 F3600 X153.26 Y128.37
G1 F1350 X158.761 Y133.87 E60.94471
G0 F3600 X158.761 Y133.248
G1 F1350 X153.267 Y127.755 E61.4137
G0 F3600 X153.137 Y127.002
G1 F1350 X158.761 Y132.626 E61.89383
G0 F3600 X158.761 Y132.004
G1 F1350 X152.592 Y125.836 E62.42045
G1 X152.515 Y125.759
G0 F3600 X151.658 Y124.901
G1 F1350 X146.496 Y119.739 E62.86114
G0 F3600 X145.874 Y119.739
G1 F1350 X150.503 Y124.368 E63.25633
G0 F3600 X149.741 Y124.229
G1 F1350 X145.251 Y119.739 E63.63965
G0 F3600 X144.629 Y119.739
G1 F1350 X149.133 Y124.243 E64.02416
G0 F3600 X148.597 Y124.329
G1 F1350 X144.007 Y119.739 E64.41602
G0 F3600 X143.384 Y119.739
G1 F1350 X148.131 Y124.486 E64.82128
G0 F3600 X147.696 Y124.672
G1 F1350 X142.762 Y119.739 E65.24247
G0 F3600 X142.14 Y119.739
G1 F1350 X147.323 Y124.922 E65.68495
G0 F3600 X146.967 Y125.188
G1 F1350 X141.518 Y119.739 E66.15014
G0 F3600 X141.238 Y120.081
G1 F1350 X146.654 Y125.498 E66.61256
G0 F3600 X146.395 Y125.861
G1 F1350 X141.238 Y120.703 E67.05287
G0 F3600 X141.238 Y121.326
G1 F1350 X146.152 Y126.24 E67.47238
G0 F3600 X145.97 Y126.68
G1 F1350 X141.238 Y121.948 E67.87636
G0 F3600 X141.238 Y122.57
G1 F1350 X145.813 Y127.145 E68.26694
G0 F3600 X145.739 Y127.694
G1 F1350 X141.238 Y123.192 E68.65124
G0 F3600 X141.238 Y123.815
G1 F1350 X145.736 Y128.313 E69.03525
G0 F3600 X145.883 Y129.083
G1 F1350 X141.238 Y124.437 E69.43184
G1 X141.161 Y124.36
G0 F3600 X147.118 Y119.739
G1 F1350 X158.761 Y131.381 E70.42579
G0 F3600 X158.761 Y130.759
G1 F1350 X147.74 Y119.739 E71.36663
G0 F3600 X148.363 Y119.739
G1 F1350 X158.761 Y130.137 E72.25433
G0 F3600 X158.761 Y129.515
G1 F1350 X148.985 Y119.739 E73.08892
G0 F3600 X149.607 Y119.739
G1 F1350 X158.761 Y128.892 E73.87038
G0 F3600 X158.761 Y128.27
G1 F1350 X150.229 Y119.739 E74.59873
G0 F3600 X150.852 Y119.739
G1 F1350 X158.761 Y127.648 E75.27394
G0 F3600 X158.761 Y127.026
G1 F1350 X151.474 Y119.739 E75.89604
G0 F3600 X152.096 Y119.739
G1 F1350 X158.761 Y126.403 E76.465
G0 F3600 X158.761 Y125.781
G1 F1350 X152.718 Y119.739 E76.98086
G0 F3600 X153.341 Y119.739
G1 F1350 X158.761 Y125.159 E77.44358
G0 F3600 X158.761 Y124.537
G1 F1350 X153.963 Y119.739 E77.8532
G0 F3600 X154.585 Y119.739
G1 F1350 X158.761 Y123.914 E78.20967
G0 F3600 X158.761 Y123.292
G1 F1350 X155.207 Y119.739 E78.51304
G0 F3600 X155.83 Y119.739
G1 F1350 X158.761 Y122.67 E78.76326
G0 F3600 X158.761 Y122.048
G1 F1350 X156.452 Y119.739 E78.96039
G0 F3600 X157.074 Y119.739
G1 F1350 X158.761 Y121.425 E79.10437
G0 F3600 X158.761 Y120.803
G1 F1350 X157.696 Y119.739 E79.19524
G0 F3600 X158.319 Y119.739
G1 F1350 X158.761 Y120.181 E79.23298
G1 F4200 E73.23298
G1 F600 Z0.5
;MESH:??querre_1.STL
G0 F3600 X158.761 Y120.181 Z0.5
G0 X148.832 Y153.076
;TYPE:WALL-INNER
G1 F600 Z0.3
G1 F4200 E79.23298
G1 F1350 X148.176 Y152.855 E79.27477
G1 X147.593 Y152.52 E79.31536
G1 X146.984 Y151.912 E79.36731
G1 X146.65 Y151.339 E79.40734
G1 X146.451 Y150.784 E79.44294
G1 X146.356 Y150.16 E79.48104
G1 X146.363 Y149.751 E79.50573
G1 X146.449 Y149.222 E79.53809
G1 X146.677 Y148.609 E79.57757
G1 X146.798 Y148.39 E79.59267
G1 X147.212 Y147.837 E79.63437
G1 X147.576 Y147.507 E79.66403
G1 X148.093 Y147.186 E79.70077
G1 X148.77 Y146.937 E79.74432
G1 X149.304 Y146.859 E79.77689
G1 X149.855 Y146.875 E79.81017
G1 X150.148 Y146.924 E79.8281
G1 X150.709 Y147.099 E79.86358
G1 X150.969 Y147.22 E79.88089
G1 X151.519 Y147.568 E79.92018
G1 X152.006 Y148.096 E79.96354
G1 X152.35 Y148.661 E80.00347
G1 X152.549 Y149.216 E80.03907
G1 X152.644 Y149.84 E80.07717
G1 X152.602 Y150.56 E80.12071
G1 X152.456 Y151.082 E80.15343
G1 X152.19 Y151.657 E80.19167
G1 X151.707 Y152.247 E80.2377
G1 X151.315 Y152.572 E80.26844
G1 X150.801 Y152.868 E80.30425
G1 X150.353 Y153.029 E80.33299
G1 X149.922 Y153.121 E80.35959
G1 X149.271 Y153.138 E80.3989
G1 X148.832 Y153.076 E80.42567
G0 F3600 X140.601 Y158.899
G1 F1350 X159.4 Y158.9 E81.56051
G1 X159.4 Y145.319 E82.38036
G1 X159.4 Y141.1 E82.63504
